yann-cuhk/magnetic-capsule-imitation-control/source/post_processing/ilc_global_pose_log.csv
t,mode,capsule_x,capsule_y,capsule_z,capsule_qx,capsule_qy,capsule_qz,capsule_qw,target_x,target_y,target_z,target_qx,target_qy,target_qz,target_qw,error_x,error_y,error_z,error_norm,attitude_error_norm,force_norm,moment_norm,robot_update_mode,robot_theta_delta_norm
0.02,ilc_global_final,0.025,0.318,0.97,0.0,0.0,0.7071067811865475,0.7071067811865475,0.025,0.20600000000000002,0.96,0.0,0.06288437640583429,-0.7043050157453441,0.7071067811865475,0.0,-0.11199999999999999,-0.010000000000000009,0.11244554237496476,3.1376303563122856,0.001859258864727543,0.0008701589233625713,jacobian,0.0019595917942265427
0.04,ilc_global_final,0.025035204323828286,0.3176205472379739,0.9697243366674245,-0.00013946907340404557,0.003418584582593743,0.7014259549016365,0.7127341184608441,0.025,0.20600000000000002,0.96,0.0,0.06288437640583429,-0.7043050157453441,0.7071067811865475,-3.520432382828412e-05,-0.11162054723797388,-0.00972433666742456,0.11204334218805949,3.1212397309086155,0.001630455198814773,0.0008361930342789931,jacobian,0.0019595917942265427
0.06,ilc_global_final,0.025023585150599374,0.3168664411938753,0.9696070239022049,-0.00034043755966801996,0.005842766517099557,0.6956934781774277,0.7183149243911666,0.025,0.20600000000000002,0.96,0.0,0.06288437640583429,-0.7043050157453441,0.7071067811865475,-2.358515059937283e-05,-0.11086644119387529,-0.009607023902204914,0.1112819088958842,3.1049658729241085,0.0013793298571818163,0.0008380816824020669,jacobian,0.0019595917942265427
0.08,ilc_global_final,0.025007069668520857,0.31577409163123965,0.9695189882419237,-0.0006077616306366866,0.00832297175079369,0.689911735891968,0.7238453947118592,0.025,0.20600000000000002,0.96,0.0,0.06288437640583429,-0.7043050157453441,0.7071067811865475,-7.069668520855166e-06,-0.10977409163123963,-0.009518988241923765,0.11018603532478102,3.0886843307128493,0.00019171829414728185,0.0008330466466305258,jacobian,0.0019595917942265427
0.1,ilc_global_final,0.024991505141395854,0.314648257391603,0.9694427511693937,-0.000969904530904396,0.010610684649062119,0.6840822314727487,0.7293270687693851,0.025,0.20600000000000002,0.96,0.0,0.06288437640583429,-0.7043050157453441,0.7071067811865475,8.494858604147365e-06,-0.108648257391603,-0.009442751169393748,0.10905782620262393,3.072425235645531,4.1713066463865795e-05,0.0008323138670719418,jacobian,0.0019595917942265427
0.12,ilc_global_final,0.024974958419553238,0.3135261893306769,0.9693669735052545,-0.001407783518285347,0.012854290650580429,0.6782049429529079,0.7347590358149252,0.025,0.20600000000000002,0.96,0.0,0.06288437640583429,-0.7043050157453441,0.7071067811865475,2.5041580446763523e-05,-0.10752618933067687,-0.009366973505254506,0.10793341563994656,3.0561701083266217,2.271221269061575e-05,0.0008309819486762506,jacobian,0.0019595917942265427
0.14,ilc_global_final,0.024957359543320318,0.31241346565941025,0.9692893407550893,-0.0019258507049065726,0.01502535464346469,0.6722804627159339,0.7401415467782835,0.025,0.20600000000000002,0.96,0.0,0.06288437640583429,-0.7043050157453441,0.7071067811865475,4.264045667968369e-05,-0.10641346565941023,-0.00928934075508936,0.10681816017662535,3.039921939215773,2.1301180763518715e-05,0.0008298719866239979,jacobian,0.0019595917942265427
0.16,ilc_global_final,0.02493879015131596,0.311310677110883,0.9692094525412733,-0.002514949167905849,0.017129359856469052,0.6663093106047738,0.7454744547353592,0.025,0.20600000000000002,0.96,0.0,0.06288437640583429,-0.7043050157453441,0.7071067811865475,6.120984868404275e-05,-0.10531067711088299,-0.009209452541273366,0.10571261266428049,3.0236799140365664,1.9846398542670423e-05,0.0008287700238405682,jacobian,0.0019595917942265427
0.18,ilc_global_final,0.024919495571932463,0.31021805774996847,0.9691274124552002,-0.0031698394059399585,0.019163156729598355,0.6602920370103046,0.7507577181774954,0.025,0.20600000000000002,0.96,0.0,0.06288437640583429,-0.7043050157453441,0.7071067811865475,8.050442806753835e-05,-0.10421805774996845,-0.009127412455200212,0.10461701439185712,3.007444201933457,1.858245734707274e-05,0.0008277122794791304,jacobian,0.0019595917942265427
0.2,ilc_global_final,0.02489972393985804,0.30913574115147524,0.9690433757503502,-0.0038842862993422457,0.021125862179820057,0.6542292001688044,0.755991245923913,0.025,0.20600000000000002,0.96,0.0,0.06288437640583429,-0.7043050157453441,0.7071067811865475,0.0001002760601419607,-0.10313574115147522,-0.009043375750350191,0.10353151116019875,2.991214771054144,1.7315527196104398e-05,0.000826688717296258,jacobian,0.0019595917942265427
0.22,ilc_global_final,0.024879714019231586,0.308063853626153,0.9689575179985565,-0.004652434981258059,0.02301656175918557,0.6481213658742707,0.7611749390454209,0.025,0.20600000000000002,0.96,0.0,0.06288437640583429,-0.7043050157453441,0.7071067811865475,0.00012028598076841562,-0.102063853626153,-0.008957517998556486,0.10245624341362716,2.9749916181795135,1.6110909882540372e-05,0.0008256985895152606,jacobian,0.0019595917942265427
0.24,ilc_global_final,0.024859688276654367,0.30700250874398916,0.9688700172361359,-0.005468505940513533,0.02483478521625723,0.641969107022951,0.7663086809597003,0.025,0.20600000000000002,0.96,0.0,0.06288437640583429,-0.7043050157453441,0.7071067811865475,0.000140311723345634,-0.10100250874398914,-0.008870017236135896,0.10139133920473019,2.9587747222304266,1.4964684627355524e-05,0.0008247397207297427,jacobian,0.0019595917942265427
0.26,ilc_global_final,0.024839852489157616,0.30595180937115224,0.9687810532400696,-0.0063268923157868105,0.026580382602693797,0.6357730022856601,0.7713923406794992,0.025,0.20600000000000002,0.96,0.0,0.06288437640583429,-0.7043050157453441,0.7071067811865475,0.00016014751084238513,-0.09995180937115222,-0.008781053240069614,0.10033691613657118,2.9425640534249946,1.3882679031779264e-05,0.0008238103491859585,jacobian,0.0019595917942265427
0.28,ilc_global_final,0.024820395799294674,0.30491184709875885,0.968690805942784,-0.007222160363101577,0.028253519981107495,0.6295336352887149,0.7764257730450104,0.025,0.20600000000000002,0.96,0.0,0.06288437640583429,-0.7043050157453441,0.7071067811865475,0.00017960420070532723,-0.09891184709875883,-0.008690805942784041,0.09929308063552207,2.9263595723449964,1.2867316688444243e-05,0.0008229088420142979,jacobian,0.0019595917942265427
0.3,ilc_global_final,0.024801491023890135,0.3038827022339421,0.9685994545716075,-0.008149068245695314,0.029854651822211555,0.6232515936543332,0.7814088196703664,0.025,0.20600000000000002,0.96,0.0,0.06288437640583429,-0.7043050157453441,0.7071067811865475,0.00019850897610986656,-0.09788270223394208,-0.00859945457160749,0.09825992785139477,2.910161230723747,1.1921243237133246e-05,0.0008220337363555073,jacobian,0.0019595917942265427
0.32,ilc_global_final,0.024783295041090014,0.30286444377954236,0.9685071767851235,-0.009102578007844298,0.03138449781281832,0.6169274681199034,0.7863413097693733,0.025,0.20600000000000002,0.96,0.0,0.06288437640583429,-0.7043050157453441,0.7071067811865475,0.00021670495890998773,-0.09686444377954234,-0.008507176785123582,0.09723754154961284,2.893968971953813,1.1046755119695357e-05,0.0008211837343971176,jacobian,0.0019595917942265427
0.34,ilc_global_final,0.024765949232846224,0.3018571294960788,0.9684141479092909,-0.010077866205199345,0.032844019253631895,0.6105618516765533,0.7912230610196566,0.025,0.20600000000000002,0.96,0.0,0.06288437640583429,-0.7043050157453441,0.7071067811865475,0.00023405076715377754,-0.09585712949607877,-0.008414147909290959,0.09622599409738018,2.877782731613548,1.0245887132849595e-05,0.000820357698165969,jacobian,0.0019595917942265427
0.36,ilc_global_final,0.02474957997387238,0.3008608060201748,0.9683205402436579,-0.011070332226885046,0.034234396008168744,0.6041553387471926,0.796053880423685,0.025,0.20600000000000002,0.96,0.0,0.06288437640583429,-0.7043050157453441,0.7071067811865475,0.0002504200261276221,-0.09486080602017477,-0.008320540243657915,0.09522534651516393,2.8616024379792675,9.52030629436331e-06,0.0008195546420995226,jacobian,0.0019595917942265427
0.38,ilc_global_final,0.024734299159171753,0.29987550903622884,0.9682265224402261,-0.012075604652015614,0.035557004003157464,0.5977085244032553,0.8008335651646292,0.025,0.20600000000000002,0.96,0.0,0.06288437640583429,-0.7043050157453441,0.7071067811865475,0.00026570084082824796,-0.09387550903622882,-0.008226522440226147,0.09423564859015637,2.845428012525484,8.871180101130937e-06,0.0008187737231431311,jacobian,0.0019595917942265427
0.4,ilc_global_final,0.024814279629629073,0.29895967911615945,0.968099208677075,-0.013086966600304333,0.03681262127966627,0.5912301943860981,0.8055559691702983,0.025,0.20600000000000002,0.96,0.0,0.06288437640583429,-0.7043050157453441,0.7071067811865475,0.0001857203703709287,-0.09295967911615943,-0.008099208677075032,0.0933120228836033,2.8292796441514705,0.0003949304478472042,0.0008181412883539178,jacobian,0.0019595917942265427
0.42,ilc_global_final,0.025145091667042808,0.2982109911475571,0.9678823089902255,-0.014089076270700123,0.03802069273155843,0.5847327899462468,0.8102120026361797,0.025,0.20600000000000002,0.96,0.0,0.06288437640583429,-0.7043050157453441,0.7071067811865475,-0.00014509166704280638,-0.0922109911475571,-0.007882308990225573,0.09254738643000185,2.8131846901623114,0.0014560466451050324,0.0008176932701002812,jacobian,0.0019595917942265427
0.44,ilc_global_final,0.025482782529812783,0.29747915402925634,0.967673113567009,-0.015076643958791096,0.039212492381122344,0.5781939016322301,0.8148170882863826,0.025,0.20600000000000002,0.96,0.0,0.06288437640583429,-0.7043050157453441,0.7071067811865475,-0.0004827825298127815,-0.09147915402925633,-0.00767311356700906,0.0918016632348876,2.7970841436271567,0.001487156419738961,0.0008168886586912964,jacobian,0.0019595917942265427
0.46,ilc_global_final,0.025846516555009576,0.29676545768770585,0.9675826071337251,-0.016077625372016267,0.04033899547523251,0.5716121089249304,0.8193740735078445,0.025,0.20600000000000002,0.96,0.0,0.06288437640583429,-0.7043050157453441,0.7071067811865475,-0.000846516555009575,-0.09076545768770583,-0.007582607133725161,0.0910855687278783,2.780977076205303,0.001518799617542209,0.0008160907791320135,jacobian,0.0019595917942265427
0.48,ilc_global_final,0.02622632513885627,0.2961021307173941,0.9674524168041382,-0.017074870001393613,0.04138595056301967,0.5650041635027486,0.8238725308777984,0.025,0.20600000000000002,0.96,0.0,0.06288437640583429,-0.7043050157453441,0.7071067811865475,-0.001226325138856267,-0.09010213071739409,-0.007452416804138218,0.09041811958552978,2.7649032709608985,0.0016592768093953874,0.0008155774067952354,jacobian,0.0019595917942265427
0.5,ilc_global_final,0.026607787297120312,0.2954535972848885,0.9673169768424794,-0.018066340599094968,0.04239060554110385,0.5583585765523635,0.8283189867977392,0.025,0.20600000000000002,0.96,0.0,0.06288437640583429,-0.7043050157453441,0.7071067811865475,-0.0016077872971203104,-0.0894535972848885,-0.00731697684247945,0.08976674884005309,2.7488311497189186,0.0016856361862065698,0.0008148670300484151,jacobian,0.0019595917942265427
0.52,ilc_global_final,0.026984017211853045,0.2948124179732375,0.9671825419085489,-0.019050382299313905,0.04333322728685412,0.5516755000300618,0.8327145111103419,0.025,0.20600000000000002,0.96,0.0,0.06288437640583429,-0.7043050157453441,0.7071067811865475,-0.001984017211853043,-0.08881241797323747,-0.007182541908548945,0.08912446812642433,2.732760888008996,0.0016765282443307063,0.0008141988336772397,jacobian,0.0019595917942265427
0.54,ilc_global_final,0.027355076027926483,0.294178069220519,0.9670500693772287,-0.020023580160090905,0.044218814000689784,0.5449555663193797,0.8370586499543909,0.025,0.20600000000000002,0.96,0.0,0.06288437640583429,-0.7043050157453441,0.7071067811865475,-0.0023550760279264817,-0.08817806922051896,-0.00705006937722874,0.08849080038500999,2.7166923796093094,0.001665918801546493,0.0008135478852685316,jacobian,0.0019595917942265427
0.56,ilc_global_final,0.027720982192734115,0.29355045061808444,0.9669197774148157,-0.02098344358196012,0.04504887721380169,0.5381993336992281,0.8413511579375904,0.025,0.20600000000000002,0.96,0.0,0.06288437640583429,-0.7043050157453441,0.7071067811865475,-0.0027209821927341137,-0.08755045061808442,-0.006919777414815753,0.08786562733511558,2.700625560287501,0.0016549266402495788,0.0008129191054980625,jacobian,0.0019595917942265427
0.58,ilc_global_final,0.0280817859479756,0.2929295230860551,0.9667917406857847,-0.021927469265358577,0.04582596396689428,0.5314073661771198,0.8455917326291789,0.025,0.20600000000000002,0.96,0.0,0.06288437640583429,-0.7043050157453441,0.7071067811865475,-0.0030817859479755974,-0.08692952308605506,-0.006791740685784697,0.08724888039477105,2.6845603252150374,0.001643835637416171,0.0008123115070371894,jacobian,0.0019595917942265427
0.6,ilc_global_final,0.02843347473345282,0.2923093076068599,0.9666666025951035,-0.02285343876964473,0.046552435774578634,0.5245803609134552,0.8497799927062082,0.025,0.20600000000000002,0.96,0.0,0.06288437640583429,-0.7043050157453441,0.7071067811865475,-0.003433474733452818,-0.0863093076068599,-0.0066666025951035435,0.08663445572335446,2.66849690299523,0.0016096767768731418,0.0008117133761924593,jacobian,0.0019595917942265427
0.62,ilc_global_final,0.02878273243336888,0.2916969786578335,0.9665437003160867,-0.02375925094693109,0.04722909791835779,0.5177189704585842,0.8539156737825818,0.025,0.20600000000000002,0.96,0.0,0.06288437640583429,-0.7043050157453441,0.7071067811865475,-0.0037827324333688794,-0.08569697865783349,-0.0065437003160867535,0.08602965319917535,2.652435493110236,0.0016080110741775737,0.0008111484022975197,jacobian,0.0019595917942265427
0.64,ilc_global_final,0.029126957553273946,0.2910911973411296,0.9664231508050568,-0.024642910045576557,0.04786092409766949,0.5108235110101058,0.8579984845722685,0.025,0.20600000000000002,0.96,0.0,0.06288437640583429,-0.7043050157453441,0.7071067811865475,-0.0041269575532739446,-0.08509119734112958,-0.006423150805056843,0.08543301767968918,2.6363753079175187,0.0015964551644297893,0.0008106026578202986,jacobian,0.0019595917942265427
0.66,ilc_global_final,0.029473765529392862,0.29050052858303593,0.966311232989575,-0.02550366020960842,0.048450952138465474,0.5038944626829289,0.8620280964274131,0.025,0.20600000000000002,0.96,0.0,0.06288437640583429,-0.7043050157453441,0.7071067811865475,-0.0044737655293928605,-0.08450052858303592,-0.006311232989575033,0.08485390722101814,2.620316101627823,0.0016201101789075291,0.0008100870095566308,jacobian,0.0019595917942265427
0.68,ilc_global_final,0.029812338638986018,0.2899147730702467,0.9662025932277647,-0.026339800841884402,0.049001431820748266,0.4969321519581276,0.8660043365488356,0.025,0.20600000000000002,0.96,0.0,0.06288437640583429,-0.7043050157453441,0.7071067811865475,-0.004812338638986016,-0.0839147730702467,-0.00620259322776473,0.08428119544332763,2.6042572786732587,0.0015965734654474627,0.0008095820449047445,jacobian,0.0019595917942265427
0.7,ilc_global_final,0.03014578962775319,0.28933531452951294,0.96609648504315,-0.027150247661237154,0.04951227193813501,0.4899373794660216,0.8699268723182559,0.025,0.20600000000000002,0.96,0.0,0.06288437640583429,-0.7043050157453441,0.7071067811865475,-0.0051457896277531875,-0.08333531452951293,-0.0060964850431500794,0.08371631220083271,2.5881994760583145,0.001584670243981294,0.0008090949819737121,jacobian,0.0019595917942265427
0.72,ilc_global_final,0.030474202086419013,0.2887620749089662,0.9659928502293174,-0.027933581147680766,0.049986877927388075,0.48291068156620437,0.8737953425766243,0.025,0.20600000000000002,0.96,0.0,0.06288437640583429,-0.7043050157453441,0.7071067811865475,-0.005474202086419012,-0.0827620749089662,-0.005992850229317392,0.083159137715535,2.5721425351093683,0.001572906581449455,0.0008086270466279612,jacobian,0.0019595917942265427
0.74,ilc_global_final,0.030797615100758794,0.2881950028594465,0.9658917324096483,-0.02868899188341724,0.05042727441520542,0.47585258449613144,0.8776094516173562,0.025,0.20600000000000002,0.96,0.0,0.06288437640583429,-0.7043050157453441,0.7071067811865475,-0.005797615100758793,-0.08219500285944648,-0.005891732409648354,0.08260958386717525,2.5560863682155612,0.0015612164866854988,0.0008081773311569999,jacobian,0.0019595917942265427
0.76,ilc_global_final,0.031116072452450575,0.28763404834227546,0.9657931748210834,-0.029415721636983593,0.05083571253623518,0.4687636166113469,0.8813688883736234,0.025,0.20600000000000002,0.96,0.0,0.06288437640583429,-0.7043050157453441,0.7071067811865475,-0.006116072452450574,-0.08163404834227544,-0.0057931748210834355,0.08206756402806302,2.540030885723487,0.0015496295775944237,0.0008077457364264626,jacobian,0.0019595917942265427
0.78,ilc_global_final,0.03143272992201103,0.28708141947657073,0.965701899480538,-0.030113313873502138,0.05121496176905795,0.4616442287740102,0.8850733427565178,0.025,0.20600000000000002,0.96,0.0,0.06288437640583429,-0.7043050157453441,0.7071067811865475,-0.006432729922011028,-0.08108141947657072,-0.0057018994805380085,0.0815358096560727,2.523975815431797,0.0015495391168888388,0.0008073334524725156,jacobian,0.0019595917942265427
0.8,ilc_global_final,0.03174324628270369,0.28653667704408464,0.9656885876789659,-0.0307829656689096,0.051575443277151696,0.4544921150995048,0.8887234102845314,0.025,0.20600000000000002,0.96,0.0,0.06288437640583429,-0.7043050157453441,0.7071067811865475,-0.006743246282703688,-0.08053667704408463,-0.005688587678965962,0.08101844079907776,2.5079144380137532,0.0015345505110212418,0.0008069780674547351,jacobian,0.0019595917942265427
0.82,ilc_global_final,0.03205115038046682,0.2860020987427694,0.9656908339626343,-0.031430011131186854,0.05190422092236088,0.4473157472258263,0.8923153750409853,0.025,0.20600000000000002,0.96,0.0,0.06288437640583429,-0.7043050157453441,0.7071067811865475,-0.007051150380466817,-0.08000209874276937,-0.005690833962634367,0.08051360205658452,2.4918655179712084,0.0015439085448991122,0.0008066027946372517,jacobian,0.0019595917942265427
0.84,ilc_global_final,0.03235430413111095,0.28547030377126187,0.9656716616722453,-0.03204388686870031,0.052205967371987544,0.4401082639943196,0.8958529132893439,0.025,0.20600000000000002,0.96,0.0,0.06288437640583429,-0.7043050157453441,0.7071067811865475,-0.0073543041311109475,-0.07947030377126185,-0.0056716616722453095,0.08001114120467179,2.4758117688376564,0.0015229604250649733,0.0008062373965361386,jacobian,0.0019595917942265427
0.86,ilc_global_final,0.03260167412190844,0.28492427190045744,0.9657760630774321,-0.032626972141984144,0.05250199404113155,0.4328634276745135,0.8993376864628879,0.025,0.20600000000000002,0.96,0.0,0.06288437640583429,-0.7043050157453441,0.7071067811865475,-0.0076016741219084374,-0.07892427190045742,-0.00577606307743217,0.07949961666038083,2.4597374518582593,0.001422944832231273,0.000806011823016472,jacobian,0.0019595917942265427
0.88,ilc_global_final,0.032742519803003294,0.28425429000017377,0.9657223358652803,-0.03318575678952703,0.05273371838416716,0.42560480594551336,0.9027615463940437,0.025,0.20600000000000002,0.96,0.0,0.06288437640583429,-0.7043050157453441,0.7071067811865475,-0.007742519803003292,-0.07825429000017375,-0.00572233586528037,0.07884431269334692,2.443696779386302,0.0007926440233558263,0.0008055445549150947,jacobian,0.0019595917942265427
0.9,ilc_global_final,0.03295124491956954,0.2836022676392318,0.9656488698460262,-0.03370198351880137,0.05293730362685379,0.41832551451725936,0.9061266920775949,0.025,0.20600000000000002,0.96,0.0,0.06288437640583429,-0.7043050157453441,0.7071067811865475,-0.007951244919569542,-0.07760226763923178,-0.005648869846026194,0.07821281205185814,2.4276704842521593,0.001024046084756916,0.0008051401262635261,jacobian,0.0019595917942265427
0.92,ilc_global_final,0.033195630232693785,0.28300355521708226,0.9656302977426678,-0.034183932520448705,0.0531528794673281,0.41101650426366965,0.9094348043618298,0.025,0.20600000000000002,0.96,0.0,0.06288437640583429,-0.7043050157453441,0.7071067811865475,-0.008195630232693783,-0.07700355521708224,-0.005630297742667878,0.07764287554986851,2.411636067556746,0.0011969042025688624,0.0008048875777552045,jacobian,0.0019595917942265427
0.94,ilc_global_final,0.03344213037333812,0.2824197408108773,0.9656186947600286,-0.03464012775643072,0.053358095540994514,0.4036811818260968,0.9126853119387536,0.025,0.20600000000000002,0.96,0.0,0.06288437640583429,-0.7043050157453441,0.7071067811865475,-0.008442130373338116,-0.07641974081087727,-0.005618694760028631,0.0770896626121069,2.395601458921591,0.0012208258384868538,0.0008046051033538489,jacobian,0.0019595917942265427
0.96,ilc_global_final,0.03368422344848301,0.2818431044949891,0.9656086813049912,-0.03506685722329274,0.05355179825318598,0.3963202469146999,0.915878148180095,0.025,0.20600000000000002,0.96,0.0,0.06288437640583429,-0.7043050157453441,0.7071067811865475,-0.008684223448483006,-0.0758431044949891,-0.005608681304991259,0.07654442855180237,2.3795669405707924,0.0012127112935709917,0.0008043409451234666,jacobian,0.0019595917942265427
0.98,ilc_global_final,0.03392207042897501,0.2812728628703634,0.9655999413854898,-0.03546491802243601,0.05373460804089254,0.38893418906535976,0.9190130728474007,0.025,0.20600000000000002,0.96,0.0,0.06288437640583429,-0.7043050157453441,0.7071067811865475,-0.008922070428975006,-0.07527286287036339,-0.005599941385489804,0.07600635874031227,2.363532505833448,0.0012039848023810188,0.0008040881764130264,jacobian,0.0019595917942265427
1.0,ilc_global_final,0.0341557125621386,0.2807088409585157,0.9655924589146508,-0.035834609076097694,0.05390771919972784,0.3815234985311761,0.9220898322135299,0.025,0.20600000000000002,0.96,0.0,0.06288437640583429,-0.7043050157453441,0.7071067811865475,-0.009155712562138596,-0.07470884095851571,-0.005592458914650877,0.07547525148416105,2.347498094835471,0.0011952883520515087,0.0008038485970750679,jacobian,0.0019595917942265427
1.02,ilc_global_final,0.03439161001000948,0.28017148488109944,0.9655876942702671,-0.036176732974997676,0.0540682565514558,0.37408854960673865,0.9251084394155454,0.025,0.20600000000000002,0.96,0.0,0.06288437640583429,-0.7043050157453441,0.7071067811865475,-0.009391610010009481,-0.07417148488109943,-0.005587694270267174,0.0749722204240027,2.3314636188515703,0.0012397706470495902,0.0008036296959781718,jacobian,0.0019595917942265427
1.04,ilc_global_final,0.03452095161863989,0.279540365761144,0.9655687517117972,-0.03649223152135546,0.054224913505035506,0.36663501882281363,0.928066128444927,0.025,0.20600000000000002,0.96,0.0,0.06288437640583429,-0.7043050157453441,0.7071067811865475,-0.009520951618639889,-0.07354036576114398,-0.005568751711797271,0.0743629269974963,2.315439848760893,0.0007676186337663057,0.000803441787568022,jacobian,0.0019595917942265427
1.06,ilc_global_final,0.03455192142810045,0.2788663348174971,0.9655414960554066,-0.03677752982951115,0.054342593624683196,0.3591550889250987,0.9309682690172549,0.025,0.20600000000000002,0.96,0.0,0.06288437640583429,-0.7043050157453441,0.7071067811865475,-0.009551921428100449,-0.0728663348174971,-0.005541496055406658,0.07369837264985084,2.299410312991382,0.0003973492635456135,0.0008032681381628697,jacobian,0.0019595917942265427
1.08,ilc_global_final,0.03463499323801993,0.2782131079176502,0.9655235325501239,-0.037039196981116566,0.054450602001500766,0.35165092183631147,0.9338120040995073,0.025,0.20600000000000002,0.96,0.0,0.06288437640583429,-0.7043050157453441,0.7071067811865475,-0.009634993238019932,-0.07221310791765018,-0.005523532550123944,0.07306213425335424,2.28337765361543,0.0005802751374231137,0.0008030013641050922,jacobian,0.0019595917942265427
1.1,ilc_global_final,0.03461248067266779,0.27753871182729734,0.9654949650922996,-0.03726936502560797,0.05456112529833932,0.344124892696577,0.9365960368607876,0.025,0.20600000000000002,0.96,0.0,0.06288437640583429,-0.7043050157453441,0.7071067811865475,-0.00961248067266779,-0.07153871182729732,-0.005494965092299631,0.07239048083800172,2.2673448258909654,0.00020683429534057963,0.0008029003501810889,jacobian,0.0019595917942265427
1.12,ilc_global_final,0.03463708607460187,0.2768730719828223,0.965473718610842,-0.03748256815027881,0.054661976661933676,0.33657939324148095,0.9393196673324071,0.025,0.20600000000000002,0.96,0.0,0.06288437640583429,-0.7043050157453441,0.7071067811865475,-0.00963708607460187,-0.07087307198282228,-0.005473718610842004,0.07173442239066452,2.251317319572715,0.0003642644315842252,0.0008026477604230024,jacobian,0.0019595917942265427
1.14,ilc_global_final,0.03475230161596914,0.27625836292554373,0.9654060594551686,-0.03766290302768214,0.054759241175706366,0.329017869218154,0.941982044933199,0.025,0.20600000000000002,0.96,0.0,0.06288437640583429,-0.7043050157453441,0.7071067811865475,-0.009752301615969142,-0.07025836292554372,-0.005406059455168588,0.07113768640192812,2.235300045467868,0.0007125639086237013,0.0008023974974043429,jacobian,0.0019595917942265427
1.16,ilc_global_final,0.03486673140947745,0.27565408076086007,0.9653360062524776,-0.03781547118967484,0.05487737833536024,0.32143621630342906,0.9445830944571648,0.025,0.20600000000000002,0.96,0.0,0.06288437640583429,-0.7043050157453441,0.7071067811865475,-0.009866731409477449,-0.06965408076086005,-0.005336006252477654,0.07055151534923729,2.2192823173356233,0.0007185882913051087,0.0008022558308131974,jacobian,0.0019595917942265427
1.18,ilc_global_final,0.0349791257621162,0.2750576639672804,0.9652681386385767,-0.03794641827027715,0.054992565804938984,0.31383446997321734,0.9471239689202643,0.025,0.20600000000000002,0.96,0.0,0.06288437640583429,-0.7043050157453441,0.7071067811865475,-0.009979125762116202,-0.06905766396728036,-0.00526813863857678,0.06997354634652447,2.2032646831369482,0.0007151846810218065,0.0008021038076385183,jacobian,0.0019595917942265427
1.2,ilc_global_final,0.035103018787655656,0.27448184969300876,0.965192980906194,-0.03805492325731481,0.055107356289880886,0.30621163917198563,0.9496048831667953,0.025,0.20600000000000002,0.96,0.0,0.06288437640583429,-0.7043050157453441,0.7071067811865475,-0.010103018787655654,-0.06848184969300875,-0.005192980906194022,0.0694175898219728,2.187243835297704,0.0007759336562557497,0.0008019558497954953,jacobian,0.0019595917942265427
1.22,ilc_global_final,0.035063904708904595,0.2738550822208482,0.9651637582148613,-0.038142882889657455,0.05523441514398036,0.29856897284807316,0.9520246048926531,0.025,0.20600000000000002,0.96,0.0,0.06288437640583429,-0.7043050157453441,0.7071067811865475,-0.010063904708904593,-0.06785508222084818,-0.005163758214861369,0.06879141487198477,2.1712208577935246,0.00016558514159324778,0.0008019581429574647,jacobian,0.0019595917942265427
1.24,ilc_global_final,0.0350483480272809,0.27322823007687025,0.9651430000315127,-0.038220519039768315,0.05533653125537658,0.29091036411839255,0.9543836860935204,0.025,0.20600000000000002,0.96,0.0,0.06288437640583429,-0.7043050157453441,0.7071067811865475,-0.010048348027280898,-0.06722823007687023,-0.00514300003151269,0.0681693088322751,2.155205341546517,0.00023516009963216958,0.0008017797972968573,jacobian,0.0019595917942265427
1.26,ilc_global_final,0.03504517835520138,0.272608685006211,0.965124808728193,-0.03827179657015018,0.05544576553930644,0.2832352215263519,0.9566811621214087,0.025,0.20600000000000002,0.96,0.0,0.06288437640583429,-0.7043050157453441,0.7071067811865475,-0.010045178355201377,-0.06660868500621098,-0.005124808728192987,0.06755654069699694,2.1391923567536537,0.0002763360288607927,0.0008016594068041131,jacobian,0.0019595917942265427
1.28,ilc_global_final,0.03504111181276123,0.2719967563042245,0.9651085495181696,-0.03830375226519777,0.05555865697950292,0.2755427077811818,0.958917240634275,0.025,0.20600000000000002,0.96,0.0,0.06288437640583429,-0.7043050157453441,0.7071067811865475,-0.010041111812761232,-0.06599675630422447,-0.005108549518169636,0.06695142304159903,2.123179714738219,0.00027299482329086293,0.0008015500073966033,jacobian,0.0019595917942265427
1.3,ilc_global_final,0.03496813208403142,0.2713899316613104,0.9650949640516078,-0.03831766269815041,0.055673888143855335,0.26782905563210313,0.9610930089556939,0.025,0.20600000000000002,0.96,0.0,0.06288437640583429,-0.7043050157453441,0.7071067811865475,-0.009968132084031418,-0.06538993166131041,-0.005094964051607809,0.06634128035094528,2.1071587031009824,3.7602031214366266e-05,0.0008014964999489143,jacobian,0.0019595917942265427
1.32,ilc_global_final,0.034886814118067225,0.27078912179858905,0.9650829472238616,-0.0383212260440596,0.05578914990477257,0.26009877956624927,0.9632069763324641,0.025,0.20600000000000002,0.96,0.0,0.06288437640583429,-0.7043050157453441,0.7071067811865475,-0.009886814118067223,-0.06478912179858903,-0.0050829472238616,0.06573595476843841,2.091138294782745,8.076796143597168e-06,0.0008013953575717211,jacobian,0.0019595917942265427
1.34,ilc_global_final,0.034805142152466044,0.27019519731553193,0.9650724065717109,-0.0383069637513487,0.055907639101488,0.2523529335489223,0.9652589856341671,0.025,0.20600000000000002,0.96,0.0,0.06288437640583429,-0.7043050157453441,0.7071067811865475,-0.009805142152466043,-0.06419519731553192,-0.00507240657171093,0.06513749672376794,2.0751189781665693,5.963887084284261e-06,0.0008013042352120833,jacobian,0.0019595917942265427
1.36,ilc_global_final,0.03472409208585535,0.2696082972677705,0.965063366413432,-0.038276529444717,0.05603029797734281,0.24459193728965986,0.9672488290068519,0.025,0.20600000000000002,0.96,0.0,0.06288437640583429,-0.7043050157453441,0.7071067811865475,-0.009724092085855347,-0.06360829726777051,-0.00506336641343208,0.06454619375018117,2.059100628158384,5.793640144734063e-06,0.0008012189243634806,jacobian,0.0019595917942265427
1.38,ilc_global_final,0.03464375139807429,0.2690283701296511,0.9650557990491536,-0.038230410834259376,0.0561569705820329,0.23681626065174685,0.9691763972742081,0.025,0.20600000000000002,0.96,0.0,0.06288437640583429,-0.7043050157453441,0.7071067811865475,-0.009643751398074288,-0.06302837012965107,-0.005055799049153653,0.06396200814744307,2.043083203706124,5.789011844414979e-06,0.0008011398533914496,jacobian,0.0019595917942265427
1.4,ilc_global_final,0.03456408523116981,0.26845531625721636,0.9650496744317191,-0.038169353015193155,0.05628775063431011,0.22902636338489488,0.9710415616715995,0.025,0.20600000000000002,0.96,0.0,0.06288437640583429,-0.7043050157453441,0.7071067811865475,-0.009564085231169805,-0.06245531625721634,-0.005049674431719109,0.06338483625414165,2.027066647170036,5.80516932006851e-06,0.0008010666258413539,jacobian,0.0019595917942265427
1.42,ilc_global_final,0.03448504621585346,0.26788903219023463,0.9650449625326752,-0.03809402938682331,0.05642259296761111,0.2212227070407507,0.9728442063441848,0.025,0.20600000000000002,0.96,0.0,0.06288437640583429,-0.7043050157453441,0.7071067811865475,-0.009485046215853457,-0.061889032190234616,-0.005044962532675279,0.06281456880467198,2.0110509072620304,5.827478336248331e-06,0.0008009988293982414,jacobian,0.0019595917942265427
1.44,ilc_global_final,0.03440658677659959,0.2673294147551562,0.9650416333595134,-0.038005096582076923,0.0565614567734381,0.2134057548438085,0.9745842180340267,0.025,0.20600000000000002,0.96,0.0,0.06288437640583429,-0.7043050157453441,0.7071067811865475,-0.009406586776599592,-0.061329414755156186,-0.005041633359513464,0.062251096825095595,1.9950359349352975,5.852036382841566e-06,0.0008009361043069812,jacobian,0.0019595917942265427
1.46,ilc_global_final,0.034335294468297,0.26677605784544006,0.9650416931667962,-0.037903211775066205,0.0567044964054024,0.20557620615440897,0.9762614250740945,0.025,0.20600000000000002,0.96,0.0,0.06288437640583429,-0.7043050157453441,0.7071067811865475,-0.009335294468297,-0.060776057845440046,-0.005041693166796257,0.06169518295645302,1.979022153161758,2.450609164555476e-05,0.000800874775117813,jacobian,0.0019595917942265427
1.48,ilc_global_final,0.03427280461887829,0.2662289423957935,0.9650456345922859,-0.03778822962580226,0.056851737834093446,0.19773455949907837,0.9778757454741855,0.025,0.20600000000000002,0.96,0.0,0.06288437640583429,-0.7043050157453441,0.7071067811865475,-0.009272804618878291,-0.06022894239579346,-0.005045634592285908,0.06114710815774177,1.9630095261548712,5.40680196305022e-05,0.0008008179210062547,jacobian,0.0019595917942265427
1.5,ilc_global_final,0.034209822242040194,0.26568844784542056,0.9650505945026479,-0.03766073294197647,0.057002909417441586,0.1898809646764683,0.9794271574577414,0.025,0.20600000000000002,0.96,0.0,0.06288437640583429,-0.7043050157453441,0.7071067811865475,-0.009209822242040193,-0.059688447845420545,-0.005050594502647887,0.06060561142959985,1.9469973714729722,5.152451358335697e-05,0.0008007699516173295,jacobian,0.0019595917942265427
1.52,ilc_global_final,0.0341461833261338,0.26515426260342145,0.9650564898326127,-0.037522367912390206,0.057157783093935904,0.18201586069903136,0.9809155346878865,0.025,0.20600000000000002,0.96,0.0,0.06288437640583429,-0.7043050157453441,0.7071067811865475,-0.009146183326133796,-0.05915426260342144,-0.005056489832612754,0.06007035494332548,1.9309856662042517,4.848209108962743e-05,0.0008007249549426093,jacobian,0.0019595917942265427
1.54,ilc_global_final,0.03408844435047533,0.2646266646010571,0.9650653535009163,-0.0373734585734844,0.05731639241275176,0.1741400034362635,0.9823407326168753,0.025,0.20600000000000002,0.96,0.0,0.06288437640583429,-0.7043050157453441,0.7071067811865475,-0.00908844435047533,-0.05862666460105709,-0.005065353500916303,0.05954278654082098,1.9149749298176015,6.872567781169244e-05,0.0008006808688757321,jacobian,0.0019595917942265427
1.56,ilc_global_final,0.03401819378681415,0.26410524320130163,0.9650714379361125,-0.037213852216700656,0.057478003456095335,0.16625326503216795,0.983702831239209,0.025,0.20600000000000002,0.96,0.0,0.06288437640583429,-0.7043050157453441,0.7071067811865475,-0.00901819378681415,-0.058105243201301615,-0.005071437936112533,0.05901920525895602,1.8989638967842533,2.460031409978897e-05,0.0008006481468138364,jacobian,0.0019595917942265427
1.58,ilc_global_final,0.033942669581137716,0.2635896808743427,0.965076984449501,-0.03704605433391563,0.057642396919058,0.1583563451017414,0.9850016304056202,0.025,0.20600000000000002,0.96,0.0,0.06288437640583429,-0.7043050157453441,0.7071067811865475,-0.008942669581137715,-0.057589680874342686,-0.005076984449500999,0.058500585070121416,1.8829531302544842,7.559056733178604e-06,0.0008006135732756704,jacobian,0.0019595917942265427
1.6,ilc_global_final,0.03386663961591232,0.2630798801927745,0.9650834330424131,-0.03686923814595653,0.05780949631706335,0.15044986850774575,0.9862370701206195,0.025,0.20600000000000002,0.96,0.0,0.06288437640583429,-0.7043050157453441,0.7071067811865475,-0.008866639615912317,-0.05707988019277449,-0.005083433042413099,0.05798768241960229,1.86694281250428,6.247813430092031e-06,0.0008005803617714152,jacobian,0.0019595917942265427
1.62,ilc_global_final,0.03379074463277828,0.26257586940990296,0.9650909753395985,-0.03668358547761714,0.057979422117984354,0.14253433723045406,0.9874090661309747,0.025,0.20600000000000002,0.96,0.0,0.06288437640583429,-0.7043050157453441,0.7071067811865475,-0.008790744632778277,-0.056575869409902946,-0.005090975339598569,0.05748064213797122,1.8509329316063137,6.133842698596576e-06,0.0008005497391388853,jacobian,0.0019595917942265427
1.64,ilc_global_final,0.03371504830067163,0.26207759753536725,0.965099615368233,-0.03648951953151423,0.05815200769547118,0.1346102305462728,0.9885175490590048,0.025,0.20600000000000002,0.96,0.0,0.06288437640583429,-0.7043050157453441,0.7071067811865475,-0.00871504830067163,-0.05607759753536723,-0.005099615368233001,0.056979426893621725,1.834923460374801,6.1372887452835195e-06,0.0008005214834408372,jacobian,0.0019595917942265427
1.66,ilc_global_final,0.03363953494612093,0.2615849893168659,0.9651093304520528,-0.03628743105785591,0.058327073315198645,0.12667802977671588,0.9895624546422482,0.025,0.20600000000000002,0.96,0.0,0.06288437640583429,-0.7043050157453441,0.7071067811865475,-0.008639534946120929,-0.055584989316865896,-0.005109330452052863,0.05648396107843018,1.8189143739511027,6.1609815335750225e-06,0.0008004954413685999,jacobian,0.0019595917942265427
1.68,ilc_global_final,0.03356417893405819,0.26109796570421717,0.9651200953068236,-0.03607769620482466,0.05850442916438938,0.11873821722520861,0.990543723101044,0.025,0.20600000000000002,0.96,0.0,0.06288437640583429,-0.7043050157453441,0.7071067811865475,-0.00856417893405819,-0.055097965704217156,-0.005120095306823669,0.05599416363790617,1.8029056486694888,6.187639095204733e-06,0.0008004714403474113,jacobian,0.0019595917942265427
1.7,ilc_global_final,0.03348895442690064,0.2606164483271175,0.9651318848237171,-0.03586067011873374,0.0586838809629419,0.11079127671264817,0.9914612990218737,0.025,0.20600000000000002,0.96,0.0,0.06288437640583429,-0.7043050157453441,0.7071067811865475,-0.00848895442690064,-0.054616448327117484,-0.005131884823717181,0.055509954215208906,1.7868972624186663,6.2143157807464e-06,0.0008004493224583174,jacobian,0.0019595917942265427
1.72,ilc_global_final,0.033413836658150245,0.2601403602753666,0.9651446744061329,-0.03563668903183645,0.058865232097270744,0.10283769348443136,0.9923151312177911,0.025,0.20600000000000002,0.96,0.0,0.06288437640583429,-0.7043050157453441,0.7071067811865475,-0.008413836658150244,-0.05414036027536656,-0.005144674406132976,0.055031254145273135,1.7708891944814988,6.240413660389399e-06,0.0008004289402940437,jacobian,0.0019595917942265427
1.74,ilc_global_final,0.03333880206632469,0.25966962620575074,0.9651584399996846,-0.035406070705001624,0.059048284292395704,0.09487795417861566,0.993105172723531,0.025,0.20600000000000002,0.96,0.0,0.06288437640583429,-0.7043050157453441,0.7071067811865475,-0.008338802066324688,-0.05366962620575072,-0.005158439999684683,0.05455798658488684,1.754881425472982,6.265808445100095e-06,0.0008004101569631198,jacobian,0.0019595917942265427
1.76,ilc_global_final,0.033263828266070244,0.2592041723214201,0.9651731580976097,-0.03516911519884351,0.0592328384935671,0.08691254677942663,0.9938313807645824,0.025,0.20600000000000002,0.96,0.0,0.06288437640583429,-0.7043050157453441,0.7071067811865475,-0.008263828266070243,-0.05320417232142011,-0.005173158097609765,0.05409007649025219,1.7388739372634534,6.290452572083043e-06,0.0008003928454054394,jacobian,0.0019595917942265427
1.78,ilc_global_final,0.03318889400074497,0.25874392633474735,0.965188805743772,-0.034926105572375805,0.059418695545666575,0.07894196056917838,0.9944937167376624,0.025,0.20600000000000002,0.96,0.0,0.06288437640583429,-0.7043050157453441,0.7071067811865475,-0.008188894000744969,-0.05274392633474734,-0.005188805743772007,0.053627450575309765,1.722866712909009,6.314320553332659e-06,0.0008003768877862141,jacobian,0.0019595917942265427
1.8,ilc_global_final,0.03311397909336076,0.2582888174270421,0.9652053605339475,-0.03467730859305517,0.059605656838708054,0.07096668607825975,0.9950921461898063,0.025,0.20600000000000002,0.96,0.0,0.06288437640583429,-0.7043050157453441,0.7071067811865475,-0.008113979093360757,-0.052288817427042056,-0.0052053605339474895,0.05317003726662612,1.70685973658455,6.337396887953681e-06,0.0008003621749201895,jacobian,0.0019595917942265427
1.82,ilc_global_final,0.033039064398672116,0.25783877620849727,0.9652228006155706,-0.03442297543931339,0.059793524882619895,0.06298721503326304,0.9956266387990863,0.025,0.20600000000000002,0.96,0.0,0.06288437640583429,-0.7043050157453441,0.7071067811865475,-0.008039064398672115,-0.05183877620849725,-0.005222800615570677,0.052717766658600625,1.6908529935201628,6.359673882391023e-06,0.0008003486057184436,jacobian,0.0019595917942265427
1.84,ilc_global_final,0.03296413175666832,0.2573937346786143,0.965241104685929,-0.03416334239628475,0.05998210382611363,0.055004040303637466,0.9960971683561701,0.025,0.20600000000000002,0.96,0.0,0.06288437640583429,-0.7043050157453441,0.7071067811865475,-0.007964131756668318,-0.0513937346786143,-0.005241104685929088,0.05227057046926351,1.674846469940564,6.3811504908234505e-06,0.0008003360866633088,jacobian,0.0019595917942265427
1.86,ilc_global_final,0.03288916394754551,0.2569536261872772,0.9652602519889651,-0.033898631541807694,0.060171199920505916,0.047017655847063994,0.9965037127469035,0.025,0.20600000000000002,0.96,0.0,0.06288437640583429,-0.7043050157453441,0.7071067811865475,-0.007889163947545512,-0.05095362618727717,-0.005260251988965181,0.05182838199685035,1.6588401530075725,6.4018314616367925e-06,0.0008003245313092297,jacobian,0.0019595917942265427
1.88,ilc_global_final,0.03281414464817501,0.25651838539653277,0.9652802223108213,-0.033629051420775234,0.0603606219325624,0.03902855665378521,0.9968462539358676,0.025,0.20600000000000002,0.96,0.0,0.06288437640583429,-0.7043050157453441,0.7071067811865475,-0.007814144648175009,-0.05051838539653275,-0.00528022231082137,0.0513911360772158,1.6428340307654858,6.421726562259202e-06,0.0008003138598097159,jacobian,0.0019595917942265427
1.9,ilc_global_final,0.03273905839007665,0.2560879482431338,0.9653009959742648,-0.03335479770605113,0.06055018150953629,0.031037238690090556,0.997124777950905,0.025,0.20600000000000002,0.96,0.0,0.06288437640583429,-0.7043050157453441,0.7071067811865475,-0.007739058390076652,-0.050087948243133784,-0.0053009959742648105,0.050958769042148536,1.6268280920892826,6.440849869673847e-06,0.0008003039984697212,jacobian,0.0019595917942265427
1.92,ilc_global_final,0.032663890518897974,0.2556622519018877,0.965322553832118,-0.033076053844443336,0.060739693499641645,0.023044198841144267,0.9973392748685953,0.025,0.20600000000000002,0.96,0.0,0.06288437640583429,-0.7043050157453441,0.7071067811865475,-0.007663890518897973,-0.049662251901887666,-0.005322553832117993,0.05053121867863462,1.6108223266355421,6.459219120108059e-06,0.0008002948793228464,jacobian,0.0019595917942265427
1.94,ilc_global_final,0.03258862715539358,0.25524123474984894,0.9653448772598145,-0.03279299168645673,0.060928976231043444,0.015049934853326686,0.9974897388006536,0.025,0.20600000000000002,0.96,0.0,0.06288437640583429,-0.7043050157453441,0.7071067811865475,-0.0075886271553935805,-0.04924123474984893,-0.005344877259814584,0.05010842418911005,1.594816724795988,6.476855115624454e-06,0.0008002864397326326,jacobian,0.0019595917942265427
1.96,ilc_global_final,0.03251325515789364,0.25482483633138414,0.96536794814719,-0.032505772098762084,0.06111785175233356,0.007054945276244197,0.9975761678812245,0.025,0.20600000000000002,0.96,0.0,0.06288437640583429,-0.7043050157453441,0.7071067811865475,-0.007513255157893639,-0.048824836331384125,-0.005367948147189994,0.04969032615273302,1.5788112776535594,6.493781185037583e-06,0.0008002786220171511,jacobian,0.0019595917942265427
1.98,ilc_global_final,0.03243776208624534,0.2544129973241328,0.9653917488896085,-0.032214545558515426,0.06130614603733491,-0.0009402705954512185,0.9975985642550371,0.025,0.20600000000000002,0.96,0.0,0.06288437640583429,-0.7043050157453441,0.7071067811865475,-0.007437762086245338,-0.04841299732413279,-0.005391748889608583,0.049276866487700625,1.5628059769409126,6.510022696434721e-06,0.0008002713730960417,jacobian,0.0019595917942265427
2.0,ilc_global_final,0.03236213616720685,0.2540056595058823,0.965416262378523,-0.03191945272884139,0.061493689156950346,-0.008935212780305563,0.9975569340663856,0.025,0.20600000000000002,0.96,0.0,0.06288437640583429,-0.7043050157453441,0.7071067811865475,-0.007362136167206851,-0.04800565950588226,-0.005416262378522996,0.048867988414627854,1.546800815001253,6.525606618367431e-06,0.0008002646441591112,jacobian,0.0019595917942265427
2.02,ilc_global_final,0.03228636626126958,0.25360276572236773,0.9654414719915513,-0.03162062501495802,0.061680315420644845,-0.016929380668255063,0.9974512874488957,0.025,0.20600000000000002,0.96,0.0,0.06288437640583429,-0.7043050157453441,0.7071067811865475,-0.007286366261269578,-0.04760276572236771,-0.0054414719915513166,0.048463636420999524,1.5307957847514164,6.540561126725178e-06,0.0008002583903555791,jacobian,0.0019595917942265427
2.04,ilc_global_final,0.03221044183088107,0.25320425985600536,0.9654673615821535,-0.03131818510056854,0.06186586349002288,-0.024922273078664625,0.9972816385160361,0.025,0.20600000000000002,0.96,0.0,0.06288437640583429,-0.7043050157453441,0.7071067811865475,-0.00721044183088107,-0.04720425985600535,-0.0054673615821535515,0.0480637562267017,1.514790879647087,6.554915254284004e-06,0.0008002525705030424,jacobian,0.0019595917942265427
2.06,ilc_global_final,0.03213435291003841,0.2528100867955615,0.9654939154689812,-0.031012247464279736,0.0620501764668358,-0.03291338831812134,0.9970480053523333,0.025,0.20600000000000002,0.96,0.0,0.06288437640583429,-0.7043050157453441,0.7071067811865475,-0.007134352910038409,-0.04681008679556148,-0.005493915468981259,0.04766829475063362,1.4987860936500854,6.568698579888502e-06,0.0008002471468152281,jacobian,0.0019595917942265427
2.08,ilc_global_final,0.03205809007521926,0.2524201924067569,0.9655211184249668,-0.03070291887592642,0.06223310195762929,-0.04090222423790229,0.9967504100052426,0.025,0.20600000000000002,0.96,0.0,0.06288437640583429,-0.7043050157453441,0.7071067811865475,-0.007058090075219257,-0.04642019240675688,-0.005521118424966831,0.04727720007839662,1.4827814211976222,6.581940954391004e-06,0.0008002420846476012,jacobian,0.0019595917942265427
2.1,ilc_global_final,0.03198164441761601,0.2520345235038015,0.9655489556662152,-0.030390298872789583,0.06241449211711781,-0.048888278291045806,0.9963888784776349,0.025,0.20600000000000002,0.96,0.0,0.06288437640583429,-0.7043050157453441,0.7071067811865475,-0.006981644417616006,-0.046034523503801494,-0.005548955666215272,0.04689042143105246,1.4667768571734432,6.594672260435485e-06,0.0008002373522599093,jacobian,0.0019595917942265427
2.12,ilc_global_final,0.031905007516636816,0.2516530278218529,0.9655774128407547,-0.03007448021579098,0.06259420367225235,-0.05687104758896424,0.9959634407208517,0.025,0.20600000000000002,0.96,0.0,0.06288437640583429,-0.7043050157453441,0.7071067811865475,-0.006905007516636814,-0.045653027821852876,-0.005577412840754747,0.04650790913494069,1.4507723968807786,6.606922203370827e-06,0.00080023292059476,jacobian,0.0019595917942265427
2.14,ilc_global_final,0.031828171414636,0.25127565399038754,0.9656064760171958,-0.029755549325831913,0.06277209792883043,-0.06485002895754464,0.9954741306282823,0.025,0.20600000000000002,0.96,0.0,0.06288437640583429,-0.7043050157453441,0.7071067811865475,-0.006828171414636,-0.04527565399038752,-0.005606476017195883,0.046129614592540634,1.4347680360170192,6.618720130669427e-06,0.0008002287630713454,jacobian,0.0019595917942265427
2.16,ilc_global_final,0.031751128592835465,0.25090235150747303,0.9656361316733476,-0.029433586700518065,0.06294804076238256,-0.07282471899269166,0.99492098602942,0.025,0.20600000000000002,0.96,0.0,0.06288437640583429,-0.7043050157453441,0.7071067811865475,-0.006751128592835463,-0.044902351507473015,-0.005636131673347644,0.045755490254361576,1.4187637706500493,6.63009487734663e-06,0.0008002248553934552,jacobian,0.0019595917942265427
2.18,ilc_global_final,0.03167387194839795,0.2505330707149264,0.9656663666848301,-0.02910866731157722,0.06312190259495935,-0.08079461411527392,0.9943040486843537,0.025,0.20600000000000002,0.96,0.0,0.06288437640583429,-0.7043050157453441,0.7071067811865475,-0.006673871948397948,-0.044533070714926404,-0.005666366684830115,0.04538548959184203,1.402759597196157,6.6410746350253435e-06,0.0008002211753709442,jacobian,0.0019595917942265427
2.2,ilc_global_final,0.03159639477261271,0.250167762774342,0.9656971683137227,-0.028780860983332608,0.06329355835933585,-0.08875921062544148,0.9936233642786473,0.025,0.20600000000000002,0.96,0.0,0.06288437640583429,-0.7043050157453441,0.7071067811865475,-0.006596394772612708,-0.04416776277434198,-0.005697168313722689,0.045019567071236784,1.3867555123994604,6.651686842432647e-06,0.0008002177027538537,jacobian,0.0019595917942265427
2.22,ilc_global_final,0.0315186907301538,0.24980637964397132,0.9657285241972803,-0.028450232752642603,0.06346288745204692,-0.09671800475628842,0.9928789824185671,0.025,0.20600000000000002,0.96,0.0,0.06288437640583429,-0.7043050157453441,0.7071067811865475,-0.006518690730153799,-0.0438063796439713,-0.005728524197280316,0.04465767812846926,1.3707515133127752,6.661958095255195e-06,0.0008002144190784098,jacobian,0.0019595917942265427
2.24,ilc_global_final,0.03144075383937128,0.24944887405643562,0.9657604223367483,-0.02811684321075795,0.06362977367656919,-0.1046704927268393,0.9920709566266157,0.025,0.20600000000000002,0.96,0.0,0.06288437640583429,-0.7043050157453441,0.7071067811865475,-0.006440753839371281,-0.043448874056435605,-0.005760422336748339,0.04429977914492451,1.3547475972798793,6.671914073384696e-06,0.0008002113075241644,jacobian,0.0019595917942265427
2.26,ilc_global_final,0.031362578453575804,0.24909519949725073,0.9657928510863018,-0.02778074882758134,0.06379410517786951,-0.11261617079434372,0.9911993443373288,0.025,0.20600000000000002,0.96,0.0,0.06288437640583429,-0.7043050157453441,0.7071067811865475,-0.006362578453575803,-0.043095199497250714,-0.005792851086301787,0.043945827424157265,1.338743761919092,6.681579483779938e-06,0.0008002083527815669,jacobian,0.0019595917942265427
2.28,ilc_global_final,0.03128415924327727,0.2487453101841433,0.9658257991421327,-0.027442002258841747,0.06395577436945053,-0.12055453530586734,0.9902642068932985,0.025,0.20600000000000002,0.96,0.0,0.06288437640583429,-0.7043050157453441,0.7071067811865475,-0.006284159243277271,-0.04274531018414329,-0.00582579914213277,0.04359578116948894,1.3227400051081435,6.6909780172422025e-06,0.0008002055409292969,jacobian,0.0019595917942265427
2.3,ilc_global_final,0.03120549117933887,0.2483991610471366,0.9658592555317058,-0.027100652636717487,0.06411467785393708,-0.12848508274917192,0.9892656095413839,0.025,0.20600000000000002,0.96,0.0,0.06288437640583429,-0.7043050157453441,0.7071067811865475,-0.006205491179338867,-0.04239916104713659,-0.005859255531705854,0.04324959946246558,1.3067363249702544,6.700132317583598e-06,0.0008002028593207158,jacobian,0.0019595917942265427
2.32,ilc_global_final,0.03112656951700818,0.24805670770938337,0.965893209603199,-0.026756745844459022,0.06427071633816568,-0.13640730980288032,0.988203621429072,0.025,0.20600000000000002,0.96,0.0,0.06288437640583429,-0.7043050157453441,0.7071067811865475,-0.006126569517008178,-0.042056707709383356,-0.005893209603199057,0.04290724224214925,1.290732719861406,6.7090639617145094e-06,0.0008002002964788311,jacobian,0.0019595917942265427
2.34,ilc_global_final,0.031047389780787946,0.24771790646872335,0.9659276510151462,-0.02641032477557425,0.06442379454366175,-0.14432071338592542,0.9870783156009557,0.025,0.20600000000000002,0.96,0.0,0.06288437640583429,-0.7043050157453441,0.7071067811865475,-0.006047389780787945,-0.04171790646872334,-0.005927651015146251,0.04256867028521435,1.2747291883587355,6.717793449378881e-06,0.000800197841999197,jacobian,0.0019595917942265427
2.36,ilc_global_final,0.030967947750109654,0.24738271427994243,0.9659625697262924,-0.02606142957814723,0.06457382111331589,-0.15222479070628558,0.9858897689952939,0.025,0.20600000000000002,0.96,0.0,0.06288437640583429,-0.7043050157453441,0.7071067811865475,-0.005967947750109653,-0.04138271427994242,-0.005962569726292388,0.0422338451868201,1.2587257292500391,6.7263402013189874e-06,0.0008001954864602117,jacobian,0.0019595917942265427
2.38,ilc_global_final,0.030888239445774058,0.24705108873771023,0.9659979559856735,-0.025710097884865384,0.06472070851500084,-0.16011903930901067,0.984638062440623,0.025,0.20600000000000002,0.96,0.0,0.06288437640583429,-0.7043050157453441,0.7071067811865475,-0.0058882394457740565,-0.04105108873771021,-0.005997955985673542,0.04190272934223026,1.2427223415243287,6.734722564737005e-06,0.0008001932213402961,jacobian,0.0019595917942265427
2.4,ilc_global_final,0.03080826111712363,0.24672298806017343,0.9660338003229296,-0.025356365029331123,0.06486437294280589,-0.16800295712354546,0.9833232806523895,0.025,0.20600000000000002,0.96,0.0,0.06288437640583429,-0.7043050157453441,0.7071067811865475,-0.005808261117123629,-0.04072298806017341,-0.006033800322929661,0.041575285929151495,1.2267190243634307,6.742957825104501e-06,0.0008001910389414744,jacobian,0.0019595917942265427
2.42,ilc_global_final,0.03072800922991287,0.2463983710731817,0.9660700935388573,-0.02500026424923195,0.06500473421650406,-0.17587604251035932,0.981945512229575,0.025,0.20600000000000002,0.96,0.0,0.06288437640583429,-0.7043050157453441,0.7071067811865475,-0.005728009229912869,-0.04039837107318167,-0.006070093538857346,0.04125147889076131,1.2107157771345858,6.751062223360666e-06,0.000800188932318903,jacobian,0.0019595917942265427
2.44,ilc_global_final,0.03064748045484341,0.24607719719512341,0.9661068266962082,-0.024641826876938347,0.06514171567980917,-0.18373779430689233,0.9805048496512875,0.025,0.20600000000000002,0.96,0.0,0.06288437640583429,-0.7043050157453441,0.7071067811865475,-0.005647480454843409,-0.0400771971951234,-0.006106826696208212,0.040931272919397056,1.1947125993840397,6.759050977679991e-06,0.0008001868952159219,jacobian,0.0019595917942265427
2.46,ilc_global_final,0.03056667165673189,0.24575942642234885,0.9661439911107365,-0.024281082518092068,0.06527524409792712,-0.19158771187282936,0.9790013892732928,0.025,0.20600000000000002,0.96,0.0,0.06288437640583429,-0.7043050157453441,0.7071067811865475,-0.00556667165673189,-0.03975942642234884,-0.006143991110736491,0.040614633440877464,1.1787094908316011,6.7669383090800195e-06,0.0008001849220042307,jacobian,0.0019595917942265427
2.48,ilc_global_final,0.030485579884279582,0.2454450193151585,0.9661815783424982,-0.02391805921873854,0.065405249554854,-0.19942529513471527,0.9774352313244627,0.025,0.20600000000000002,0.96,0.0,0.06288437640583429,-0.7043050157453441,0.7071067811865475,-0.005485579884279581,-0.03944501931515848,-0.006181578342498217,0.040301526599428976,1.1627064513661622,6.774737470177579e-06,0.000800183007628816,jacobian,0.0019595917942265427
2.5,ilc_global_final,0.03040420236041387,0.24513393698433478,0.9662195801874048,-0.023552783621546707,0.06553166535082766,-0.20725004462992488,0.975806479903119,0.025,0.20600000000000002,0.96,0.0,0.06288437640583429,-0.7043050157453441,0.7071067811865475,-0.005404202360413869,-0.03913393698433476,-0.006219580187404872,0.03999191924318894,1.146703481042167,6.782460776480634e-06,0.0008001811475572817,jacobian,0.0019595917942265427
2.52,ilc_global_final,0.030322536473172703,0.24482614107819564,0.9662579886690295,-0.023185281111647613,0.06565442790029517,-0.2150614615500026,0.9741152429732499,0.025,0.20600000000000002,0.96,0.0,0.06288437640583429,-0.7043050157453441,0.7071067811865475,-0.005322536473172702,-0.038826141078195625,-0.006257988669029491,0.03968577891025833,1.1307005800770393,6.790119639707712e-06,0.0008001793377332547,jacobian,0.0019595917942265427
2.54,ilc_global_final,0.030240579767104227,0.24452159377014926,0.9662967960306673,-0.02281557595261009,0.0657734766307179,-0.22285904778338686,0.9723616323605839,0.025,0.20600000000000002,0.96,0.0,0.06288437640583429,-0.7043050157453441,0.7071067811865475,-0.005240579767104226,-0.03852159377014924,-0.006296796030667351,0.03938307381527769,1.1146977488495584,6.797724602607715e-06,0.0008001775745335639,jacobian,0.0019595917942265427
2.56,ilc_global_final,0.03015832993515492,0.24422025774672926,0.9663359947276476,-0.022443691413057597,0.06588875388249853,-0.23064230595753515,0.9705457637484983,0.025,0.20600000000000002,0.96,0.0,0.06288437640583429,-0.7043050157453441,0.7071067811865475,-0.0051583299351549185,-0.03822025774672924,-0.006335994727647676,0.039083772836499685,1.0986949878992143,6.805285374893739e-06,0.0008001758547289067,jacobian,0.0019595917942265427
2.58,ilc_global_final,0.030075784811020544,0.24392209619609068,0.9663755774198953,-0.022069649884415565,0.06600020481027935,-0.23841073948046584,0.9686677566737504,0.025,0.20600000000000002,0.96,0.0,0.06288437640583429,-0.7043050157453441,0.7071067811865475,-0.005075784811020542,-0.03792209619609066,-0.006375577419895362,0.03878784550333287,1.0826922979265454,6.812810869883723e-06,0.0008001741754477418,jacobian,0.0019595917942265427
2.6,ilc_global_final,0.02999294236193534,0.24362707279694704,0.9664155369647397,-0.021693472990262884,0.0661077772858291,-0.24616385258173337,0.9667277345220135,0.025,0.20600000000000002,0.96,0.0,0.06288437640583429,-0.7043050157453441,0.7071067811865475,-0.0049929423619353396,-0.03762707279694702,-0.006415536964739732,0.03849526198433127,1.066689679794491,6.820309241524127e-06,0.000800172534143159,jacobian,0.0019595917942265427
2.62,ilc_global_final,0.02990980068187589,0.24333515170793002,0.9664558664099667,-0.021315181687745304,0.06621142180270581,-0.25390115035285293,0.9647258245232055,0.025,0.20600000000000002,0.96,0.0,0.06288437640583429,-0.7043050157453441,0.7071067811865475,-0.004909800681875888,-0.03733515170793,-0.0064558664099667595,0.03820599307560575,1.0506871345307962,6.827787921521134e-06,0.0008001709285625007,jacobian,0.0019595917942265427
2.64,ilc_global_final,0.029826357985157106,0.24304629755735335,0.966496558987111,-0.02093479636149203,0.06631109138285626,-0.2616221387871912,0.9626621577465956,0.025,0.20600000000000002,0.96,0.0,0.06288437640583429,-0.7043050157453441,0.7071067811865475,-0.004826357985157105,-0.037046297557353336,-0.00649655898711099,0.037920010189632945,1.0346846633315065,6.835253656297808e-06,0.0008001693567195195,jacobian,0.0019595917942265427
2.66,ilc_global_final,0.029742612600398854,0.24276047543336327,0.966537608104983,-0.020552336910460305,0.06640674148528738,-0.2693263248193402,0.9605368690956795,0.025,0.20600000000000002,0.96,0.0,0.06288437640583429,-0.7043050157453441,0.7071067811865475,-0.004742612600398852,-0.03676047543336325,-0.00653760810498305,0.03763728534443876,1.0186822675656133,6.842712543590108e-06,0.0008001678168688785,jacobian,0.0019595917942265427
2.68,ilc_global_final,0.02965856296484255,0.24247765087445844,0.9665790073434272,-0.020167822828116102,0.06649832991692231,-0.27701321636398984,0.9583500973028122,0.025,0.20600000000000002,0.96,0.0,0.06288437640583429,-0.7043050157453441,0.7071067811865475,-0.004658562964842548,-0.03647765087445842,-0.006579007343427201,0.037357791153133625,1.002679948780906,6.850170068484818e-06,0.0008001663074828083,jacobian,0.0019595917942265427
2.7,ilc_global_final,0.029574207618998222,0.242197789860363,0.9666207504473057,-0.019781273276342246,0.06658581674573297,-0.2846823223543151,0.9561019849235867,0.025,0.20600000000000002,0.96,0.0,0.06288437640583429,-0.7043050157453441,0.7071067811865475,-0.004574207618998221,-0.03619778986036298,-0.006620750447305701,0.037081500813777715,0.9866777087111226,6.8576311387155415e-06,0.0008001648272297515,jacobian,0.0019595917942265427
2.72,ilc_global_final,0.0294895452016033,0.24192085880323683,0.9666628313207023,-0.019392707153448895,0.0666691642162221,-0.29233315277989547,0.9537926783309544,0.025,0.20600000000000002,0.96,0.0,0.06288437640583429,-0.7043050157453441,0.7071067811865475,-0.004489545201603298,-0.03592085880323681,-0.006662831320702334,0.036808388099554785,0.9706755492844759,6.865100119159436e-06,0.0008001633749548392,jacobian,0.0019595917942265427
2.74,ilc_global_final,0.029404574444875323,0.2416468245392076,0.9667052440213422,-0.019002143156644568,0.06674833666731066,-0.29996521872417914,0.9514223277090755,0.025,0.20600000000000002,0.96,0.0,0.06288437640583429,-0.7043050157453441,0.7071067811865475,-0.004404574444875322,-0.03564682453920759,-0.006705244021342205,0.03653842734923393,0.9546734726336776,6.87258086532063e-06,0.0008001619496620523,jacobian,0.0019595917942265427
2.76,ilc_global_final,0.029319294170041733,0.24137565432021016,0.9667479827552199,-0.01860959983930994,0.06682330045267065,-0.3075780324015102,0.9489910870468945,0.025,0.20600000000000002,0.96,0.0,0.06288437640583429,-0.7043050157453441,0.7071067811865475,-0.004319294170041732,-0.03537565432021014,-0.006747982755219928,0.03627159345789904,0.9386714811075786,6.880076755817559e-06,0.0008001605504979335,jacobian,0.0019595917942265427
2.78,ilc_global_final,0.029233703283130578,0.24110731580611888,0.9667910418714319,-0.018215095663400505,0.06689402386352991,-0.31517110719373215,0.9464991141314363,0.025,0.20600000000000002,0.96,0.0,0.06288437640583429,-0.7043050157453441,0.7071067811865475,-0.004233703283130576,-0.035107315806118866,-0.00679104187143198,0.036007861867926795,0.9226695772845781,6.8875907237344185e-06,0.0008001591767367249,jacobian,0.0019595917942265427
2.8,ilc_global_final,0.02914780077100695,0.24084177705715967,0.9668344158572069,-0.017818649047288547,0.06696047705396245,-0.32274395768638153,0.9439465705408143,0.025,0.20600000000000002,0.96,0.0,0.06288437640583429,-0.7043050157453441,0.7071067811865475,-0.004147800771006949,-0.034841777057159656,-0.006834415857206899,0.035747208560194234,0.9066677639879731,6.895125286817455e-06,0.0008001578277668169,jacobian,0.0019595917942265427
2.82,ilc_global_final,0.029061585697640644,0.24057900652658848,0.966878099333127,-0.01742027840933975,0.06702263196866684,-0.330296099704487,0.9413336216369493,0.025,0.20600000000000002,0.96,0.0,0.06288437640583429,-0.7043050157453441,0.7071067811865475,-0.004061585697640643,-0.03457900652658846,-0.006878099333126997,0.03548961004549766,0.8906660443034538,6.902682576465278e-06,0.0008001565030784009,jacobian,0.0019595917942265427
2.84,ilc_global_final,0.028975057200591292,0.24031897305362376,0.9669220870485363,-0.017020002207504683,0.06708046227322541,-0.3378270503479867,0.9386604365579939,0.025,0.20600000000000002,0.96,0.0,0.06288437640583429,-0.7043050157453441,0.7071067811865475,-0.003975057200591291,-0.03431897305362375,-0.006922087048536363,0.03523504335616519,0.8746644215989698,6.910264365498616e-06,0.0008001552022522278,jacobian,0.0019595917942265427
2.86,ilc_global_final,0.028888214487698044,0.24006164585662135,0.9669663738771289,-0.016617838975191073,0.0671339432868275,-0.34533632802677655,0.9359271882104591,0.025,0.20600000000000002,0.96,0.0,0.06288437640583429,-0.7043050157453441,0.7071067811865475,-0.0038882144876980426,-0.03406164585662133,-0.006966373877128951,0.034983486037846186,0.858662899547248,6.917872094691222e-06,0.0008001539249493819,jacobian,0.0019595917942265427
2.88,ilc_global_final,0.028801056833961426,0.2398069945264799,0.9670109548127106,-0.016213807353668726,0.0671830519174329,-0.3528234524954027,0.9331340532610412,0.025,0.20600000000000002,0.96,0.0,0.06288437640583429,-0.7043050157453441,0.7071067811865475,-0.003801056833961425,-0.033806994526479894,-0.007010954812710635,0.03473491614146084,0.84266148215127,6.925506898049542e-06,0.0008001526709019861,jacobian,0.0019595917942265427
2.9,ilc_global_final,0.02871358357860576,0.23955498902026642,0.9670558249651298,-0.015807926121245423,0.06722776659934443,-0.36028794488740956,0.9302812121281467,0.025,0.20600000000000002,0.96,0.0,0.06288437640583429,-0.7043050157453441,0.7071067811865475,-0.00371358357860576,-0.03355498902026641,-0.007055824965129798,0.03448931221529415,0.8266601737730832,6.933169626863769e-06,0.0008001514399047603,jacobian,0.0019595917942265427
2.92,ilc_global_final,0.02862579412231119,0.23930559965505108,0.96710097955637,-0.015400214219438987,0.06726806723315233,-0.36772932774935513,0.927368848973113,0.025,0.20600000000000002,0.96,0.0,0.06288437640583429,-0.7043050157453441,0.7071067811865475,-0.003625794122311187,-0.03330559965505106,-0.007100979556370013,0.03424665329721882,0.8106589791663666,6.940860872536866e-06,0.0008001502318073633,jacobian,0.0019595917942265427
2.94,ilc_global_final,0.028537687924604833,0.23905879710194172,0.9671464139167998,-0.014990690776358184,0.06730393512800893,-0.3751471250745049,0.9243971516911245,0.025,0.20600000000000002,0.96,0.0,0.06288437640583429,-0.7043050157453441,0.7071067811865475,-0.0035376879246048314,-0.033058797101941706,-0.007146413916799821,0.034006918907032356,0.7946579035132539,6.9485809881894905e-06,0.0008001490465074511,jacobian,0.0019595917942265427
2.96,ilc_global_final,0.02844926450140138,0.23881455238030858,0.9671921234815736,-0.014579375127492977,0.06733535294618637,-0.3825408623362144,0.9213663119018229,0.025,0.20600000000000002,0.96,0.0,0.06288437640583429,-0.7043050157453441,0.7071067811865475,-0.0034492645014013792,-0.03281455238030856,-0.007192123481573609,0.03377008903889423,0.7786569524659979,6.956330109097364e-06,0.0008001478839443929,jacobian,0.0019595917942265427
2.98,ilc_global_final,0.028360523422683758,0.2385728368521898,0.9672381037871776,-0.014166286834103068,0.0673623046498676,-0.38991006652101096,0.9182765249396123,0.025,0.20600000000000002,0.96,0.0,0.06288437640583429,-0.7043050157453441,0.7071067811865475,-0.0033605234226837567,-0.032572836852189785,-0.007238103787177597,0.0335361441538489,0.7626561321941534,6.9641081719731325e-06,0.0008001467440935865,jacobian,0.0019595917942265427
3.0,ilc_global_final,0.02827146431031524,0.23833362221686974,0.9672843504681166,-0.013751445699382487,0.06738477545011722,-0.3972542661613832,0.9151279898436571,0.025,0.20600000000000002,0.96,0.0,0.06288437640583429,-0.7043050157453441,0.7071067811865475,-0.003271464310315237,-0.03233362221686972,-0.007284350468116596,0.03330506517242187,0.7466554494380896,6.971914933110163e-06,0.0008001456269613237,jacobian,0.0019595917942265427
3.02,ilc_global_final,0.028182086835974732,0.23809688050562153,0.9673308592537346,-0.013334871782567372,0.0674027517579759,-0.4045729913682889,0.9119209093475744,0.025,0.20600000000000002,0.96,0.0,0.06288437640583429,-0.7043050157453441,0.7071067811865475,-0.003182086835974731,-0.03209688050562151,-0.007330859253734667,0.03307683346727581,0.7306549115697698,6.979749985465023e-06,0.0008001445325801588,jacobian,0.0019595917942265427
3.04,ilc_global_final,0.02809239071920754,0.23786258407660607,0.9673776259651663,-0.01291658541114393,0.06741622113762118,-0.41186577386338824,0.9086554898688225,0.025,0.20600000000000002,0.96,0.0,0.06288437640583429,-0.7043050157453441,0.7071067811865475,-0.0030923907192075377,-0.031862584076606054,-0.0073776259651663345,0.03285143085591444,0.7146545266619182,6.987612774646394e-06,0.0008001434610047353,jacobian,0.0019595917942265427
3.06,ilc_global_final,0.02800237572558428,0.2376307056099204,0.9674246465124114,-0.01249660719130382,0.06742517226153429,-0.4191321470110116,0.9053319414977834,0.025,0.20600000000000002,0.96,0.0,0.06288437640583429,-0.7043050157453441,0.7071067811865475,-0.0030023757255842783,-0.03163070560992037,-0.007424646512411481,0.03262883959342241,0.6986543035668928,6.995502613940126e-06,0.0008001424123080315,jacobian,0.0019595917942265427
3.08,ilc_global_final,0.027912041664961154,0.237401218102788,0.96747191689153,-0.01207495801678504,0.06742959486761327,-0.42637164584986886,0.9019504779865434,0.025,0.20600000000000002,0.96,0.0,0.06288437640583429,-0.7043050157453441,0.7071067811865475,-0.0029120416649611527,-0.03140121810278798,-0.007471916891530039,0.03240904236522982,0.6826542520068419,7.003418698322821e-06,0.0008001413865779899,jacobian,0.0019595917942265427
3.1,ilc_global_final,0.02782138838983509,0.2371740948648847,0.9675194331819517,-0.01165165907622754,0.06742947971817029,-0.43358380712450795,0.8985113167373705,0.025,0.20600000000000002,0.96,0.0,0.06288437640583429,-0.7043050157453441,0.7071067811865475,-0.002821388389835089,-0.031174094864884677,-0.007519433181951696,0.032192022279890424,0.6666543826770099,7.011360117552559e-06,0.0008001403839144939,jacobian,0.0019595917942265427
3.12,ilc_global_final,0.02773041579378776,0.23694930951379367,0.9675671915438954,-0.011226731859164505,0.06742481856075189,-0.44076816931652935,0.8950146787908928,0.025,0.20600000000000002,0.96,0.0,0.06288437640583429,-0.7043050157453441,0.7071067811865475,-0.0027304157937877577,-0.030949309513793655,-0.007567191543895402,0.03197776286186334,0.6506547073644474,7.019325868378249e-06,0.0008001394044266632,jacobian,0.0019595917942265427
3.14,ilc_global_final,0.02763912381001274,0.23672683597058353,0.9676151882158942,-0.010800198160762305,0.0674156040907199,-0.44792427267556245,0.8914607888139766,0.025,0.20600000000000002,0.96,0.0,0.06288437640583429,-0.7043050157453441,0.7071067811865475,-0.0026391238100127376,-0.03072683597058351,-0.007615188215894242,0.03176624804428775,0.6346552390848172,7.027314865891131e-06,0.000800138448230438,jacobian,0.0019595917942265427
3.16,ilc_global_final,0.027547512409920528,0.23650664845550384,0.9676634195124222,-0.010372080085414598,0.0674018299155313,-0.45505165925001034,0.8878498750873085,0.025,0.20600000000000002,0.96,0.0,0.06288437640583429,-0.7043050157453441,0.7071067811865475,-0.0025475124099205264,-0.030506648455503826,-0.00766341951242222,0.03155746216174182,0.6186559922405594,7.035325954052438e-06,0.0008001375154464281,jacobian,0.0019595917942265427
3.18,ilc_global_final,0.027455581601816402,0.23628872148379268,0.9677118818216169,-0.009942400049289035,0.06738349052065581,-0.4621498729175684,0.8841821694926816,0.025,0.20600000000000002,0.96,0.0,0.06288437640583429,-0.7043050157453441,0.7071067811865475,-0.0024555816018164006,-0.030288721483792663,-0.007711881821616973,0.03135138994297587,0.6026569828043644,7.0433579154795e-06,0.0008001366061979991,jacobian,0.0019595917942265427
3.2,ilc_global_final,0.027363331429646424,0.23607302986159096,0.9677605716030965,-0.00951118078191821,0.06736058123707007,-0.46921845941552187,0.880457907499989,0.025,0.20600000000000002,0.96,0.0,0.06288437640583429,-0.7043050157453441,0.7071067811865475,-0.0023633314296464224,-0.03007302986159094,-0.007760571603096511,0.03114801650361196,0.5866582285327719,7.0514094804703265e-06,0.0008001357206095795,jacobian,0.0019595917942265427
3.22,ilc_global_final,0.027270761971807198,0.23585954868195888,0.9678094853858635,-0.009078445326920271,0.06733309821026855,-0.47625696637082665,0.8766773281539263,0.025,0.20600000000000002,0.96,0.0,0.06288437640583429,-0.7043050157453441,0.7071067811865475,-0.002270761971807197,-0.029859548681958864,-0.007809485385863568,0.0309473273388009,0.5706597492157856,7.059479335371183e-06,0.0008001348588051624,jacobian,0.0019595917942265427
3.24,ilc_global_final,0.0271778733400153,0.23564825332098974,0.9678586197662963,-0.008644217041928528,0.06730103837073179,-0.48326494332997944,0.8728406740604051,0.025,0.20600000000000002,0.96,0.0,0.06288437640583429,-0.7043050157453441,0.7071067811865475,-0.0021778733400152975,-0.02964825332098972,-0.007858619766296315,0.030749308315829654,0.5546615669697649,7.067566130250371e-06,0.0008001340209069881,jacobian,0.0019595917942265427
3.26,ilc_global_final,0.027084665678232474,0.23543911943401674,0.9679079714062192,-0.008208519597803826,0.06726439940579425,-0.4902419417886794,0.8689481913726804,0.025,0.20600000000000002,0.96,0.0,0.06288437640583429,-0.7043050157453441,0.7071067811865475,-0.002084665678232473,-0.029439119434016725,-0.007907971406219239,0.030553945666670985,0.5386637065825689,7.075668486002258e-06,0.000777530535775281,jacobian,0.0019595917942265427
3.28,ilc_global_final,0.026991139161643037,0.23523212295190885,0.9679575370310531,-0.00778659008820262,0.06722144482457879,-0.4969920496452956,0.8651124487370757,0.025,0.20600000000000002,0.96,0.0,0.06288437640583429,-0.7043050157453441,0.7071067811865475,-0.001991139161643035,-0.02923212295190883,-0.007957537031053175,0.030361225980469333,0.5231177241927136,2.4160966195443273e-05,0.0007557225174920836,jacobian,0.0019595917942265427
3.3,ilc_global_final,0.026898883796635735,0.2350234541725549,0.968002123703023,-0.0073775738482016896,0.06716648621442677,-0.5035243670778554,0.8613346888942554,0.025,0.20600000000000002,0.96,0.0,0.06288437640583429,-0.7043050157453441,0.7071067811865475,-0.0018988837966357336,-0.02902345417255489,-0.008002123703023,0.030166216791934687,0.5080079429572552,2.6683780139669843e-05,0.0007345881500622095,jacobian,0.0019595917942265427
3.32,ilc_global_final,0.026807981789513113,0.23481265510041577,0.968041373529853,-0.006980033715381346,0.06710204651124521,-0.5098466606797836,0.8576158680184303,0.025,0.20600000000000002,0.96,0.0,0.06288437640583429,-0.7043050157453441,0.7071067811865475,-0.0018079817895131113,-0.02881265510041575,-0.008041373529853013,0.029968342969429348,0.49332096938942904,2.6155261121284656e-05,0.0007140201639790057,jacobian,0.0019595917942265427
3.34,ilc_global_final,0.02671842330423736,0.23459981543058153,0.9680754809096749,-0.0065939314231167135,0.0670288316088824,-0.5159657835202993,0.8539572389984267,0.025,0.20600000000000002,0.96,0.0,0.06288437640583429,-0.7043050157453441,0.7071067811865475,-0.0017184233042373577,-0.028599815430581516,-0.008075480909674915,0.029767697479623757,0.47904548064531355,2.539161685492e-05,0.0006940175472724246,jacobian,0.0019595917942265427
3.36,ilc_global_final,0.026630211712113782,0.234385091998842,0.9681046541879781,-0.0062189333013767676,0.06694764055436439,-0.5218884736531711,0.8503597823043827,0.025,0.20600000000000002,0.96,0.0,0.06288437640583429,-0.7043050157453441,0.7071067811865475,-0.0016302117121137806,-0.028385091998841983,-0.008104654187978122,0.02956444583474798,0.465170189495431,2.460740387742466e-05,0.0006745631803412536,jacobian,0.0019595917942265427
3.38,ilc_global_final,0.02654334875265373,0.2341686463737576,0.9681290997633998,-0.005854816919543004,0.06685922737585073,-0.5276212383568982,0.8468242991720735,0.025,0.20600000000000002,0.96,0.0,0.06288437640583429,-0.7043050157453441,0.7071067811865475,-0.0015433487526537275,-0.028168646373757572,-0.008129099763399816,0.029358760649343327,0.45168414433377746,2.384359065692522e-05,0.0006556418935617446,jacobian,0.0019595917942265427
3.4,ilc_global_final,0.026457835617124018,0.23395063567576804,0.9681490166342408,-0.0055013416091938844,0.06676429210147986,-0.5331703677838195,0.8433514234635233,0.025,0.20600000000000002,0.96,0.0,0.06288437640583429,-0.7043050157453441,0.7071067811865475,-0.0014578356171240162,-0.027950635675768026,-0.008149016634240835,0.029150811163177012,0.4385766972687577,2.310464447588892e-05,0.0006372396945497162,jacobian,0.0019595917942265427
3.42,ilc_global_final,0.026373672409026265,0.23373121084788695,0.9681645966590223,-0.0051582782523410114,0.0666634944574857,-0.5385419482731052,0.8399416292947943,0.025,0.20600000000000002,0.96,0.0,0.06288437640583429,-0.7043050157453441,0.7071067811865475,-0.0013736724090262636,-0.027731210847886933,-0.00816459665902236,0.028940761385661592,0.4258374789388096,2.2388735943736267e-05,0.0006193425191355588,jacobian,0.0019595917942265427
3.44,ilc_global_final,0.026290858207515706,0.23351051697578892,0.9681760250549469,-0.0048254011829577045,0.0665574523527924,-0.5437418638817321,0.8365952465213667,0.025,0.20600000000000002,0.96,0.0,0.06288437640583429,-0.7043050157453441,0.7071067811865475,-0.001290858207515705,-0.027510516975788907,-0.008176025054946967,0.02872877033369512,0.4134564004672978,2.1695661927160556e-05,0.0006019368313250761,jacobian,0.0019595917942265427
3.46,ilc_global_final,0.026209391139182563,0.23328869337671307,0.9681834805350218,-0.0045024897508417145,0.066446745121882,-0.5487758034082785,0.8333124715509465,0.025,0.20600000000000002,0.96,0.0,0.06288437640583429,-0.7043050157453441,0.7071067811865475,-0.001209391139182562,-0.027288693376713052,-0.008183480535021825,0.02851499196568144,0.40142364284887644,2.1024519030598476e-05,0.0005850093969948264,jacobian,0.0019595917942265427
3.48,ilc_global_final,0.02612926843377797,0.23306587382419466,0.9681871355566479,-0.004189327619011489,0.06633191538344956,-0.5536492655027804,0.8300933786893451,0.025,0.20600000000000002,0.96,0.0,0.06288437640583429,-0.7043050157453441,0.7071067811865475,-0.0011292684337779677,-0.027065873824194647,-0.008187135556647962,0.02829957529161315,0.38972965099729595,2.037464826220617e-05,0.0005685473412423309,jacobian,0.0019595917942265427
3.5,ilc_global_final,0.02605048648342506,0.23284218673108786,0.9681871565191568,-0.0038857026550049695,0.06621347109880667,-0.5583675643267415,0.8269379303597966,0.025,0.20600000000000002,0.96,0.0,0.06288437640583429,-0.7043050157453441,0.7071067811865475,-0.0010504864834250602,-0.026842186731087847,-0.008187156519156802,0.028082664443168828,0.37836512660712324,1.9745353658744147e-05,0.0005525381217488192,jacobian,0.0019595917942265427
3.52,ilc_global_final,0.025973040896068382,0.23261775533622003,0.968183703966325,-0.0035914067058001133,0.06609188746288926,-0.5629358350139004,0.8238459867394307,0.025,0.20600000000000002,0.96,0.0,0.06288437640583429,-0.7043050157453441,0.7071067811865475,-0.0009730408960683806,-0.026617755336220017,-0.008183703966325062,0.027864398761371745,0.3673210215536902,1.913597917038712e-05,0.0005369695255410362,jacobian,0.0019595917942265427
3.54,ilc_global_final,0.025896926546443082,0.2323926978819449,0.9681769327791254,-0.003306235429356357,0.06596760871458925,-0.5673590391168967,0.8208173147175402,0.025,0.20600000000000002,0.96,0.0,0.06288437640583429,-0.7043050157453441,0.7071067811865475,-0.000896926546443081,-0.02639269788194487,-0.008176932779125456,0.027644912884501337,0.35658853135229546,1.854588693218001e-05,0.0005218296597583314,jacobian,0.0019595917942265427
3.56,ilc_global_final,0.025822137623932186,0.232167127786207,0.9681669923630393,-0.003029988136089664,0.0658410498521802,-0.571641969973408,0.8178515962515303,0.025,0.20600000000000002,0.96,0.0,0.06288437640583429,-0.7043050157453441,0.7071067811865475,-0.0008221376239321843,-0.026167127786206973,-0.008166992363039305,0.027424336839936753,0.34615908879970597,1.7974461732760548e-05,0.0005071069441467116,jacobian,0.0019595917942265427
3.58,ilc_global_final,0.025748667677724074,0.23194115380848923,0.9681540268290898,-0.002762467649690993,0.0657125982617302,-0.5757892579937886,0.8149484361486535,0.025,0.20600000000000002,0.96,0.0,0.06288437640583429,-0.7043050157453441,0.7071067811865475,-0.0007486676777240728,-0.025941153808489215,-0.008154026829089833,0.027202796138207558,0.33602435776287004,1.7421108828297016e-05,0.0004927901032964927,jacobian,0.0019595917942265427
3.6,ilc_global_final,0.025676509659388422,0.2317148802100944,0.9681381751690579,-0.002503480182516536,0.06558261526141645,-0.5798053758570144,0.8121073693113194,0.025,0.20600000000000002,0.96,0.0,0.06288437640583429,-0.7043050157453441,0.7071067811865475,-0.0006765096593884211,-0.025714880210094382,-0.008138175169057904,0.02698041186900267,0.3261762271203743,1.6885253502915364e-05,0.0004788681591298893,jacobian,0.0019595917942265427
3.62,ilc_global_final,0.025605655963046287,0.23148840690892303,0.9681195714250015,-0.0022528352246893747,0.06545143756570843,-0.583694643607692,0.809327867478761,0.025,0.20600000000000002,0.96,0.0,0.06288437640583429,-0.7043050157453441,0.7071067811865475,-0.0006056559630462852,-0.02548840690892301,-0.008119571425001526,0.026757300798587833,0.31660680485177506,1.6366340230722226e-05,0.0004653304235106983,jacobian,0.0019595917942265427
3.64,ilc_global_final,0.025536098463281146,0.23126182962897052,0.96809834485328,-0.0020103454452344606,0.06531937867303038,-0.5874612336472301,0.8066093454967104,0.025,0.20600000000000002,0.96,0.0,0.06288437640583429,-0.7043050157453441,0.7071067811865475,-0.0005360984632811448,-0.0252618296289705,-0.008098344853279982,0.026533575468227245,0.3073084122725433,1.5863831981162336e-05,0.0004521664910091072,jacobian,0.0019595917942265427
3.66,ilc_global_final,0.02546782855093161,0.23103524004473888,0.9680746200832548,-0.001775826603968896,0.06518673018048246,-0.591109175613841,0.8039511671447289,0.025,0.20600000000000002,0.96,0.0,0.06288437640583429,-0.7043050157453441,0.7071067811865475,-0.00046782855093160935,-0.025035240044738866,-0.00807462008325488,0.026309344293229096,0.2982735784116799,1.5377209527225233e-05,0.0004393662318131563,jacobian,0.0019595917942265427
3.68,ilc_global_final,0.0254008371668958,0.2308087259207538,0.9680485172708422,-0.0015490974729330835,0.06505376302907699,-0.5946423611471052,0.8013526505491628,0.025,0.20600000000000002,0.96,0.0,0.06288437640583429,-0.7043050157453441,0.7071067811865475,-0.0004008371668957969,-0.024808725920753782,-0.008048517270842215,0.026084711662283926,0.2894950345292069,1.4905970790575878e-05,0.00042691978478863756,jacobian,0.0019595917942265427
3.7,ilc_global_final,0.02533511483406864,0.2305823712463687,0.9680201522470804,-0.0013299797662843459,0.06492072868283894,-0.5980645485338674,0.7988130732080497,0.025,0.20600000000000002,0.96,0.0,0.06288437640583429,-0.7043050157453441,0.7071067811865475,-0.000335114834068638,-0.024582371246368695,-0.008020152247080414,0.02585977803680179,0.2809657087707014,1.4449630212831504e-05,0.00041481755068623234,jacobian,0.0019595917942265427
3.72,ilc_global_final,0.02527065168752508,0.23035625636602935,0.9679896366618774,-0.0011182980776773056,0.0647878602450026,-0.6013793672331127,0.7963316766527511,0.025,0.20600000000000002,0.96,0.0,0.06288437640583429,-0.7043050157453441,0.7071067811865475,-0.00027065168752507876,-0.02435625636602934,-0.007989636661877464,0.025634640049989416,0.27267872095605317,1.4007718154131606e-05,0.00040305018549515587,jacobian,0.0019595917942265427
3.74,ilc_global_final,0.025207437503054476,0.2301304581051647,0.9679570781230915,-0.0009138798242537589,0.06465537351441829,-0.6045903222782694,0.7939076707696138,0.025,0.20600000000000002,0.96,0.0,0.06288437640583429,-0.7043050157453441,0.7071067811865475,-0.00020743750305447436,-0.024130458105164676,-0.007957078123091543,0.025409390605438835,0.2646273774996227,1.3579780316840736e-05,0.00039160859394216514,jacobian,0.0019595917942265427
3.76,ilc_global_final,0.025145461724144315,0.22990504989186317,0.9679225803310977,-0.0007165551964524407,0.06452346798516233,-0.6077007985560671,0.791540237803571,0.025,0.20600000000000002,0.96,0.0,0.06288437640583429,-0.7043050157453441,0.7071067811865475,-0.00014546172414431346,-0.02390504989186315,-0.007922580331097717,0.025184118975027772,0.25680516645900564,1.3165377193498273e-05,0.0003804839231346733,jacobian,0.0019595917942265427
3.78,ilc_global_final,0.02508471348750492,0.2296801018744861,0.9678862432089858,-0.000526157112928856,0.06439232779222398,-0.6107140649616895,0.7892285360642745,0.025,0.20600000000000002,0.96,0.0,0.06288437640583429,-0.7043050157453441,0.7071067811865475,-8.471348750491853e-05,-0.023680101874486076,-0.007886243208985788,0.02495891089595615,0.2492057527096122,1.276408353760394e-05,0.00036966755634650224,jacobian,0.0019595917942265427
3.8,ilc_global_final,0.02502518164722052,0.22945568103536393,0.9678481630285325,-0.00034252117994743606,0.06426212260602251,-0.6136332784304855,0.7869717033541048,0.025,0.20600000000000002,0.96,0.0,0.06288437640583429,-0.7043050157453441,0.7071067811865475,-2.5181647220519354e-05,-0.023455681035363912,-0.007848163028532529,0.024733848666766596,0.24182297324230262,1.2375487856319433e-05,0.00035915110694469284,jacobian,0.0019595917942265427
3.82,ilc_global_final,0.024966854797606568,0.22923185130071472,0.9678084325320833,-0.00016548565467352431,0.06413300847838933,-0.6164614878469621,0.7847688601362288,0.025,0.20600000000000002,0.96,0.0,0.06288437640583429,-0.7043050157453441,0.7071067811865475,3.314520239343366e-05,-0.0232318513007147,-0.007808432532083298,0.024509011242215745,0.23465083258133787,1.1999191923802258e-05,0.00034892641245563226,jacobian,0.0019595917942265427
3.84,ilc_global_final,0.024909721294847767,0.22900867364691846,0.9677671410504772,5.1085881482726306e-06,0.06400512864253348,-0.6192016378321737,0.782619112459762,0.025,0.20600000000000002,0.96,0.0,0.06288437640583429,-0.7043050157453441,0.7071067811865475,9.02787051522344e-05,-0.023008673646918443,-0.0077671410504772664,0.024284474326882438,0.22768349831994086,1.1634810314392889e-05,0.0003389855287686772,jacobian,0.0019595917942265427
3.86,ilc_global_final,0.024853769277486525,0.2287862062032753,0.9677243746171437,0.00016941808658944916,0.06387861426939435,-0.6218565724109667,0.7805215546580473,0.025,0.20600000000000002,0.96,0.0,0.06288437640583429,-0.7043050157453441,0.7071067811865475,0.0001462307225134768,-0.02278620620327529,-0.007724374617143703,0.024060310467414213,0.220915296770784,1.1281969954532231e-05,0.00032932072447532606,jacobian,0.0019595917942265427
3.88,ilc_global_final,0.024798986685826894,0.22856450435137074,0.9676802160784933,0.0003275968194184672,0.06375358518267417,-0.62442903856082,0.7784752718350704,0.025,0.20600000000000002,0.96,0.0,0.06288437640583429,-0.7043050157453441,0.7071067811865475,0.00020101331417310755,-0.022564504351370723,-0.00768021607849334,0.023836589143328597,0.21434070872876385,1.094030969261924e-05,0.00031992447534193,jacobian,0.0019595917942265427
3.9,ilc_global_final,0.024745361280314924,0.2283436208211656,0.9676347452007249,0.0004797962318352721,0.06363015053473411,-0.6269216896442722,0.7764793421541047,0.025,0.20600000000000002,0.96,0.0,0.06288437640583429,-0.7043050157453441,0.7071067811865475,0.0002546387196850769,-0.02234362082116559,-0.007634745200724935,0.023613376856298628,0.20795436534345013,1.0609479885911614e-05,0.00031078945891385457,jacobian,0.0019595917942265427
3.92,ilc_global_final,0.024692880658952414,0.2281236057839239,0.9675880387731635,0.0006261652593881281,0.06350840944543287,-0.6293370887271251,0.7745328389417993,0.025,0.20600000000000002,0.96,0.0,0.06288437640583429,-0.7043050157453441,0.7071067811865475,0.00030711934104758754,-0.02212360578392389,-0.007588038773163497,0.023390737217863583,0.20175104409863948,1.02891420037009e-05,0.0003019085492489421,jacobian,0.0019595917942265427
3.94,ilc_global_final,0.024641532273797385,0.2279045069420875,0.9675401707082413,0.0007668503503657689,0.06338845160588476,-0.6316777117847839,0.7726348326200969,0.025,0.20600000000000002,0.96,0.0,0.06288437640583429,-0.7043050157453441,0.7071067811865475,0.0003584677262026166,-0.02190450694208748,-0.007540170708241312,0.023168731035516553,0.19572566489647875,9.978968245952885e-06,0.00029327481177808166,jacobian,0.0019595917942265427
3.96,ilc_global_final,0.02459130344660125,0.22768636961620176,0.9674912121382316,0.0009019954869256325,0.06327035784901641,-0.6339459507992276,0.7707843924775977,0.025,0.20600000000000002,0.96,0.0,0.06288437640583429,-0.7043050157453441,0.7071067811865475,0.0004086965533987505,-0.02168636961620174,-0.007491212138231673,0.02294741639712993,0.1898732862436674,9.678641176762853e-06,0.00028488149829064915,jacobian,0.0019595917942265427
3.98,ilc_global_final,0.02454218138362949,0.22746923682899278,0.9674412315088393,0.0010317422051898,0.06315420068870671,-0.6361441167492151,0.7689805882912458,0.025,0.20600000000000002,0.96,0.0,0.06288437640583429,-0.7043050157453441,0.7071067811865475,0.0004578186163705124,-0.021469236828992766,-0.007441231508839352,0.02272684875368819,0.1841891015372869,9.387853371903385e-06,0.00027672204204255495,jacobian,0.0019595917942265427
4.0,ilc_global_final,0.024494153189709694,0.22725314938669236,0.9673902946697496,0.0011562296145139661,0.06304004482920365,-0.6382744424964132,0.7672224918085369,0.025,0.20600000000000002,0.96,0.0,0.06288437640583429,-0.7043050157453441,0.7071067811865475,0.0005058468102903078,-0.021253149386692344,-0.007390294669749609,0.02250708100030458,0.17866843544784478,9.106307079811751e-06,0.00026879005298460106,jacobian,0.0019595917942265427
4.02,ilc_global_final,0.024447205881548164,0.22703814595770377,0.9673384649622346,0.0012755944161109835,0.06292794764642531,-0.6403390855701928,0.7655091780997929,0.025,0.20600000000000002,0.96,0.0,0.06288437640583429,-0.7043050157453441,0.7071067811865475,0.0005527941184518374,-0.021038145957703758,-0.00733846496223467,0.022288163555506044,0.17330674039717212,8.833713895488397e-06,0.0002610793131088533,jacobian,0.0019595917942265427
4.04,ilc_global_final,0.024401326400353647,0.22682426314869739,0.9672858033039116,0.00138997092118907,0.06281795964266818,-0.6423401308538859,0.7638397267894489,0.025,0.20600000000000002,0.96,0.0,0.06288437640583429,-0.7043050157453441,0.7071067811865475,0.0005986735996463544,-0.02082426314869737,-0.007285803303911598,0.022070144438775155,0.16809959312884348,8.56979444660408e-06,0.0002535837719106976,jacobian,0.0019595917942265427
4.06,ilc_global_final,0.024356501623804483,0.22661153557822206,0.9672323682707439,0.001499491068745402,0.06271012487616685,-0.6442795931753141,0.7622132231747222,0.025,0.20600000000000002,0.96,0.0,0.06288437640583429,-0.7043050157453441,0.7071067811865475,0.0006434983761955185,-0.02061153557822204,-0.007232368270743916,0.021853069346344522,0.16304269136884902,8.314278091383963e-06,0.00024629754196427606,jacobian,0.0019595917942265427
4.08,ilc_global_final,0.024312718377393207,0.22639999594791488,0.9671782161763763,0.0016042844431383263,0.06260448136687301,-0.6461594198044175,0.7606287592395029,0.025,0.20600000000000002,0.96,0.0,0.06288437640583429,-0.7043050157453441,0.7071067811865475,0.0006872816226067939,-0.020399995947914862,-0.007178216176376373,0.021636981725243178,0.15813185057427165,8.066902627703592e-06,0.00023921489460896386,jacobian,0.0019595917942265427
4.1,ilc_global_final,0.024269963445180606,0.2261896751113891,0.9671234011488882,0.001704478291545655,0.06250106147974864,-0.647981492860801,0.7590854345708016,0.025,0.20600000000000002,0.96,0.0,0.06288437640583429,-0.7043050157453441,0.7071067811865475,0.0007300365548193952,-0.020189675111389083,-0.007123401148888209,0.021421922845599045,0.15336300076779,7.827414012920299e-06,0.00023233025574459376,jacobian,0.0019595917942265427
4.12,ilc_global_final,0.0242282235799893,0.22598060214087648,0.9670679752050481,0.0018001975414023005,0.062399892286799846,-0.6497476316340097,0.7575823571846162,0.025,0.20600000000000002,0.96,0.0,0.06288437640583429,-0.7043050157453441,0.7071067811865475,0.0007717764200107016,-0.019980602140876463,-0.007067975205048094,0.02120793187120461,0.14873218345584993,7.595566093940522e-06,0.00022563820173310373,jacobian,0.0019595917942265427
4.14,ilc_global_final,0.024187485513065186,0.22577280439169836,0.9670119883221521,0.0018915648178976848,0.06230099590901117,-0.651459594819314,0.7561186442676419,0.025,0.20600000000000002,0.96,0.0,0.06288437640583429,-0.7043050157453441,0.7071067811865475,0.0008125144869348157,-0.019772804391698345,-0.007011988322152107,0.020995045928357523,0.1442355486284039,7.371120347177286e-06,0.0002191334554043247,jacobian,0.0019595917942265427
4.16,ilc_global_final,0.02414773596323332,0.22556630756463628,0.966955488507521,0.0019787004616018053,0.06220438983927839,-0.6531190826717572,0.7546934228408284,0.025,0.20600000000000002,0.96,0.0,0.06288437640583429,-0.7043050157453441,0.7071067811865475,0.0008522640367666819,-0.01956630756463626,-0.006955488507521035,0.020783300172989013,0.13986935183816243,7.153845627848667e-06,0.00021281088216363532,jacobian,0.0019595917942265427
4.18,ilc_global_final,0.024108961645573378,0.22536113576627084,0.9668985218657339,0.0020617225462784866,0.062110087247377564,-0.6547277390811769,0.7533058303504044,0.025,0.20600000000000002,0.96,0.0,0.06288437640583429,-0.7043050157453441,0.7071067811865475,0.0008910383544266237,-0.019361135766270826,-0.00689852186573392,0.020572727856097248,0.13562995135733777,6.943517928354736e-06,0.00020666548619922197,jacobian,0.0019595917942265427
4.2,ilc_global_final,0.024071149279638302,0.2251573115673552,0.9668411326636694,0.00214074689693496,0.062018097267952224,-0.6562871535708688,0.7519550151916201,0.025,0.20600000000000002,0.96,0.0,0.06288437640583429,-0.7043050157453441,0.7071067811865475,0.0009288507203616993,-0.019157311567355173,-0.00684113266366948,0.020363360387503884,0.13151380540990565,6.739920145266256e-06,0.00020069240678670817,jacobian,0.0019595917942265427
4.22,ilc_global_final,0.02403428559723839,0.22495485605928658,0.9667833633934272,0.002215887108148547,0.061928425272446484,-0.6577988632225076,0.7506401371701172,0.025,0.20600000000000002,0.96,0.0,0.06288437640583429,-0.7043050157453441,0.7071067811865475,0.0009657144027616117,-0.018954856059286568,-0.006783363393427222,0.020155227397954664,0.1275174694774633,6.542841854660104e-06,0.00019488691468895654,jacobian,0.0019595917942265427
4.24,ilc_global_final,0.023998357349811886,0.2247537889087377,0.9667252548331944,0.002287254562703675,0.061841073125861415,-0.6592643545298884,0.7493603679055181,0.025,0.20600000000000002,0.96,0.0,0.06288437640583429,-0.7043050157453441,0.7071067811865475,0.0010016426501881157,-0.01875378890873769,-0.006725254833194416,0.019948356799585613,0.12363759367678727,6.352079095311869e-06,0.00018924440864884066,jacobian,0.0019595917942265427
4.26,ilc_global_final,0.023963351315401876,0.22455412841050734,0.9666668461061274,0.00235495845056569,0.061756039429163474,-0.6606850651839938,0.7481148911815202,0.025,0.20600000000000002,0.96,0.0,0.06288437640583429,-0.7043050157453441,0.7071067811865475,0.0010366486845981258,-0.018554128410507326,-0.006666846106127444,0.019742774844779567,0.1198709202072547,6.1674341596544206e-06,0.00018376041197285168,jacobian,0.0019595917942265427
4.28,ilc_global_final,0.023929254305258205,0.2243558915386474,0.9666081747373092,0.002419105788211892,0.06167331974812849,-0.6620623857918299,0.7469029032465043,0.025,0.20600000000000002,0.96,0.0,0.06288437640583429,-0.7043050157453441,0.7071067811865475,0.0010707456947417968,-0.01835589153864739,-0.006608174737309236,0.019538506183437027,0.1162142808663181,5.988715391972368e-06,0.00017843056920339718,jacobian,0.0019595917942265427
4.3,ilc_global_final,0.023896053170082143,0.22415909399592185,0.9665492767088458,0.00247980143833479,0.06159290682936119,-0.6633976615314133,0.7457236130683973,0.025,0.20600000000000002,0.96,0.0,0.06288437640583429,-0.7043050157453441,0.7071067811865475,0.0011039468299178581,-0.018159093995921832,-0.006549276708845864,0.019335573918687825,0.1126645946312774,5.81573699370678e-06,0.0001732506428777126,jacobian,0.0019595917942265427
4.32,ilc_global_final,0.0238637348059305,0.2239637502616509,0.9664901865131614,0.0025371481299277586,0.06151479080418951,-0.6646921937452285,0.7445762425472864,0.025,0.20600000000000002,0.96,0.0,0.06288437640583429,-0.7043050157453441,0.7071067811865475,0.001136265194069501,-0.017963750261650896,-0.006490186513161467,0.01913399966107033,0.10921886530562173,5.648318835510184e-06,0.0001682165103713107,jacobian,0.0019595917942265427
4.34,ilc_global_final,0.023832286159795015,0.22376987363799222,0.9664309372045498,0.0025912464787589636,0.06143895938109424,-0.6659472414744063,0.7434600266890479,0.025,0.20600000000000002,0.96,0.0,0.06288437640583429,-0.7043050157453441,0.7071067811865475,0.0011677138402049862,-0.017769873637992206,-0.0064309372045497915,0.01893380358120574,0.10587417922826418,5.48628627584692e-06,0.00016332416082395096,jacobian,0.0019595917942265427
4.36,ilc_global_final,0.023801694234872002,0.22357747629470864,0.9663715604490378,0.0026421950082356144,0.061365398027297874,-0.6671640229358123,0.7423742137430347,0.025,0.20600000000000002,0.96,0.0,0.06288437640583429,-0.7043050157453441,0.7071067811865475,0.0011983057651279994,-0.017577476294708627,-0.006371560449037861,0.018735004460995634,0.10262770304402404,5.329469985839184e-06,0.00015856969214612858,jacobian,0.0019595917942265427
4.38,ilc_global_final,0.023771946095536445,0.22338656931247108,0.9663120865726167,0.0026900901706572,0.061294090140102106,-0.6683437169441667,0.7413180653066689,0.025,0.20600000000000002,0.96,0.0,0.06288437640583429,-0.7043050157453441,0.7071067811865475,0.001228053904463556,-0.017386569312471067,-0.006312086572616726,0.01853761974337151,0.09947668153374864,5.177705780200565e-06,0.00015394930810411878,jacobian,0.0019595917942265427
4.4,ilc_global_final,0.023743028872033944,0.22319716272474271,0.9662525446078908,0.0027350263688533747,0.0612250172085306,-0.6694874642812494,0.7402908563995885,0.025,0.20600000000000002,0.96,0.0,0.06288437640583429,-0.7043050157453441,0.7071067811865475,0.001256971127966057,-0.0171971627247427,-0.00625254460789082,0.01834166558062502,0.09641843550251769,5.03083445394281e-06,0.000149459315481667,jacobian,0.0019595917942265427
4.42,ilc_global_final,0.023714929764903307,0.22300926555828982,0.9661929623391973,0.002777095978199533,0.061158158965802865,-0.6705963690141818,0.7392918755098241,0.025,0.20600000000000002,0.96,0.0,0.06288437640583429,-0.7043050157453441,0.7071067811865475,0.0012850702350966949,-0.0170092655582898,-0.006192962339197305,0.018147156881348415,0.0934503597243907,4.888701624725408e-06,0.00014509612131641952,jacobian,0.0019595917942265427
4.44,ilc_global_final,0.023687636049141817,0.22282288587236235,0.9661333663462445,0.002816389369000802,0.061093493533135826,-0.671671499764711,0.7383204246143128,0.025,0.20600000000000002,0.96,0.0,0.06288437640583429,-0.7043050157453441,0.7071067811865475,0.0013123639508581843,-0.01682288587236233,-0.0061333663462445065,0.017954107356014246,0.09056992094220703,4.751157580604802e-06,0.0001408562302092471,jacobian,0.0019595917942265427
4.46,ilc_global_final,0.023661135078124715,0.2226380307965868,0.9660737820463169,0.002852994929233152,0.0610309975553423,-0.6727138909313536,0.7373758191758994,0.025,0.20600000000000002,0.96,0.0,0.06288437640583429,-0.7043050157453441,0.7071067811865475,0.0013388649218752866,-0.016638030796586795,-0.006073782046316922,0.01776252956122411,0.08777465592098288,4.618057133016497e-06,0.00013673624170464985,jacobian,0.0019595917942265427
4.48,ilc_global_final,0.023635414287289727,0.22245470656761163,0.9660142337350924,0.0028869990876286018,0.060970646328669456,-0.6737245438662014,0.7364573881188291,0.025,0.20600000000000002,0.96,0.0,0.06288437640583429,-0.7043050157453441,0.7071067811865475,0.0013645857127102742,-0.01645470656761161,-0.006014233735092467,0.01757243494265544,0.0850621695534784,4.489259474763463e-06,0.00013273284774045438,jacobian,0.0019595917942265427
4.5,ilc_global_final,0.023610461197597066,0.22227291856454467,0.9659547446261174,0.0029184863370899845,0.060912413921295795,-0.6747044280081179,0.7355644737846001,0.025,0.20600000000000002,0.96,0.0,0.06288437640583429,-0.7043050157453441,0.7071067811865475,0.001389538802402935,-0.01627291856454466,-0.0059547446261174475,0.017383833876736175,0.08243013301654932,4.36462804291771e-06,0.0001288428301650683,jacobian,0.0019595917942265427
4.52,ilc_global_final,0.023586263418774706,0.22209267134322083,0.9658953368889811,0.002947539258419457,0.06085627328688225,-0.6756544819740063,0.7346964318699157,0.025,0.20600000000000002,0.96,0.0,0.06288437640583429,-0.7043050157453441,0.7071067811865475,0.0014137365812252958,-0.016092671343220816,-0.00589533688898114,0.01719673571107601,0.07987628197691946,4.244030386354082e-06,0.00012506305832056877,jacobian,0.0019595917942265427
4.54,ilc_global_final,0.023562808652358325,0.2219139686693365,0.9658360316862329,0.002974238544343864,0.06080219637155086,-0.6765756146097568,0.7338526313483537,0.025,0.20600000000000002,0.96,0.0,0.06288437640583429,-0.7043050157453441,0.7071067811865475,0.0014371913476416767,-0.015913968669336476,-0.005836031686232923,0.017011148803683828,0.07739841484505906,4.127338037893544e-06,0.0001213904866899726,jacobian,0.0019595917942265427
4.56,ilc_global_final,0.023540084694534842,0.22173681355048658,0.9657768492090819,0.002998663023819164,0.06075015421464407,-0.677468706002433,0.7330324543772613,0.025,0.20600000000000002,0.96,0.0,0.06288437640583429,-0.7043050157453441,0.7071067811865475,0.0014599153054651592,-0.01573681355048656,-0.005776849209081947,0.01682708056099987,0.07499439107586842,4.014426390800066e-06,0.00011782215260703458,jacobian,0.0019595917942265427
4.58,ilc_global_final,0.02351807943879805,0.22156120826713863,0.9657178087119179,0.0030208896865953974,0.0607001170435982,-0.6783346084551939,0.7322352961912788,0.025,0.20600000000000002,0.96,0.0,0.06288437640583429,-0.7043050157453441,0.7071067811865475,0.0014819205612019506,-0.01556120826713861,-0.00571780871191796,0.016644537474771143,0.07266212951490968,3.905174579504729e-06,0.00011435517402698515,jacobian,0.0019595917942265427
